!!!!SEGMENT: pl-wumfc--n68232--001-003_moniuszko-stanislaw--paria-wyciag-fortepianowy-prolog-scena-ii-chor.krn
!!!cenid: 18xx:4133
!!!COM: Moniuszko, Stanisław
!!!COM-rismID: pe30008351
!!!CDT: 1819/05/05-1872/06/04
!!!CNT: Polish
!!!GTL: Paria – wyciąg fortepianowy
!!!OTL: Prolog. Scena II Chór
!!!OMV: 003
!!!PDT:
!!!AGN:
!!!SMS-siglum: PL-Wumfc
!!!SMS-shelfmark: N68232
!!!SMS-variant:
!!!SMS-altvar:
!!!SMS-shelfwork: 001-003 G
!!!NIFC-rismSourceID: 1001171381
!!!NIFC-rismChildID: 1001171381
!!!NIFC-islandoraID: pl-wumfc:7210
!!!URL-pdf-islandora: https://repozytorium.nifc.pl/islandora/object/pl-wumfc%3A7210/datastream/PDF/view
!!!URL-scan: https://polish.musicsources.pl/pl/lokalizacje/galeria/druki-muzyczne/12634/1 @EN{Scan on Polish Music Sources Website} @PL{Skany w portalu Dziedzictwo Muzyki Polskiej w otwartym dostępie}
!!!IIIF:
!!!ONB-nifc: UWAGA: str. 8-12. Uwaga: proszę w pliku umieszczać obsadę, która występuje tylko w danej części.
!!!AIN: 4 empty 1 tenor
!!!key:
**kern	**kern	**dynam	**kern	**text	**text	**dynam	**kern	**text	**text	**dynam	**kern	**text	**text	**dynam
*part5	*part4	*part4	*part3	*part3	*part3	*part3	*part2	*part2	*part2	*part2	*part1	*part1	*part1	*part1
*staff5	*staff4	*	*staff3	*staff3	*staff3	*	*staff2	*staff2	*staff2	*	*staff1	*staff1	*staff1	*
*Iempty	*Iempty	*	*Iempty	*	*	*	*Itenor	*	*	*	*Iempty	*	*	*
*	*	*	*I"Bassi.	*	*	*	*I"Tenori.	*	*	*	*I"Idamor.Idamar.	*	*	*
*	*	*	*I'B.	*	*	*	*I'T.	*	*	*	*I'C.	*	*	*
*clefF4	*clefG2	*	*clefF4	*	*	*	*clefGv2	*	*	*	*clefG2	*	*	*
*k[]	*k[]	*	*k[]	*	*	*	*k[]	*	*	*	*k[]	*	*	*
*C:	*C:	*	*C:	*	*	*	*C:	*	*	*	*C:	*	*	*
*M4/4	*M4/4	*	*M4/4	*	*	*	*M4/4	*	*	*	*M4/4	*	*	*
*met(c)	*met(c)	*	*met(c)	*	*	*	*met(c)	*	*	*	*met(c)	*	*	*
=1	=1	=1	=1	=1	=1	=1	=1	=1	=1	=1	=1	=1	=1	=1
*	*^	*	*	*	*	*	*	*	*	*	*	*	*	*
!	!	!	!	!	!	!	!	!LO:TX:a:t=WOJOWNICY.\nGUERRIERI.	!	!	!	!	!	!	!
!	!LO:TX:a:t=Vivace molto e feroce.	!	!	!	!	!	!	!LO:TX:a:t=CHOR. CORO.	!	!	!	!	!	!	!
4GG/ 4C 4G	(8ee/L	4e\ 4b-X	ff	1r	.	.	.	1r	.	.	.	1ryy	.	.	.
.	8dd/J)	.	.	.	.	.	.	.	.	.	.	.	.	.	.
2GG/ 2C 2G	2cc^/	2e\ 2b-	.	.	.	.	.	.	.	.	.	.	.	.	.
4GG/ 4C 4G	4cc/	4e\ 4b-	.	.	.	.	.	.	.	.	.	.	.	.	.
=2	=2	=2	=2	=2	=2	=2	=2	=2	=2	=2	=2	=2	=2	=2	=2
4GG/ 4C 4G	(8ee/L	4e\ 4b-X	.	1r	.	.	.	1r	.	.	.	1ryy	.	.	.
.	8dd/J)	.	.	.	.	.	.	.	.	.	.	.	.	.	.
2GG/ 2C 2G	2cc^/	2e\ 2b-	.	.	.	.	.	.	.	.	.	.	.	.	.
4GG/ 4C 4G	(8ee/L	4b-\	.	.	.	.	.	.	.	.	.	.	.	.	.
.	8gg/J)	.	.	.	.	.	.	.	.	.	.	.	.	.	.
=3	=3	=3	=3	=3	=3	=3	=3	=3	=3	=3	=3	=3	=3	=3	=3
4GG/ 4C 4G	(8ee/L 8gg	4b-X\	.	1r	.	.	.	1r	.	.	.	1ryy	.	.	.
.	8dd/J) 8ff	.	.	.	.	.	.	.	.	.	.	.	.	.	.
2GG/ 2C 2G	2cc/ 2ee	2b-^\	.	.	.	.	.	.	.	.	.	.	.	.	.
4GG/ 4C 4G	4cc/ 4ee	4b-\	.	.	.	.	.	.	.	.	.	.	.	.	.
=4	=4	=4	=4	=4	=4	=4	=4	=4	=4	=4	=4	=4	=4	=4	=4
4GG/ 4C 4G	(8ee/L 8gg	4b-X\	.	1r	.	.	.	1r	.	.	.	1ryy	.	.	.
.	8dd/J) 8ff	.	.	.	.	.	.	.	.	.	.	.	.	.	.
2GG/ 2C 2G	2cc/ 2ee	2b-^\	.	.	.	.	.	.	.	.	.	.	.	.	.
4GG/ 4C 4G	(8ee\L 8gg	4ryy	.	.	.	.	.	.	.	.	.	.	.	.	.
.	8bb-X\J)	.	.	.	.	.	.	.	.	.	.	.	.	.	.
=5	=5	=5	=5	=5	=5	=5	=5	=5	=5	=5	=5	=5	=5	=5	=5
4..GG/ 4..C#X 4..G	8.bb-X/L	4..ee^\ 4..gg	.	1r	.	.	.	1r	.	.	.	1ryy	.	.	.
.	16aa/Jk	.	.	.	.	.	.	.	.	.	.	.	.	.	.
.	[4bb-/	.	.	.	.	.	.	.	.	.	.	.	.	.	.
16GG/ 16C# 16G	.	16ee-X\ 16gg	.	.	.	.	.	.	.	.	.	.	.	.	.
4..GG/ 4..D 4..G	8.bb-/L]	4..ee-^\ 4..gg	.	.	.	.	.	.	.	.	.	.	.	.	.
.	16aa/Jk	.	.	.	.	.	.	.	.	.	.	.	.	.	.
.	[4bb-/	.	.	.	.	.	.	.	.	.	.	.	.	.	.
16GG/ 16D 16G	.	16ee-\ 16gg	.	.	.	.	.	.	.	.	.	.	.	.	.
=6	=6	=6	=6	=6	=6	=6	=6	=6	=6	=6	=6	=6	=6	=6	=6
4..GG/ 4..C#X 4..G	8.bb-/L]	4..ee^\ 4..gg	.	1r	.	.	.	1r	.	.	.	1ryy	.	.	.
.	16aa/Jk	.	.	.	.	.	.	.	.	.	.	.	.	.	.
.	[4bb-X/	.	.	.	.	.	.	.	.	.	.	.	.	.	.
16GG/ 16C# 16G	.	16ee\ 16gg	.	.	.	.	.	.	.	.	.	.	.	.	.
4..GG/ 4..D 4..G	8.bb-/L]	4..ee^\ 4..gg	.	.	.	.	.	.	.	.	.	.	.	.	.
.	16aa/Jk	.	.	.	.	.	.	.	.	.	.	.	.	.	.
.	4bb-/	.	.	.	.	.	.	.	.	.	.	.	.	.	.
16GG/ 16D 16G	.	16ee\ 16gg	.	.	.	.	.	.	.	.	.	.	.	.	.
*	*v	*v	*	*	*	*	*	*	*	*	*	*	*	*	*
=7	=7	=7	=7	=7	=7	=7	=7	=7	=7	=7	=7	=7	=7	=7
4GG^/ 4C#X 4G	8gg\L 8bb-X	.	1r	.	.	.	1r	.	.	.	1ryy	.	.	.
.	8ff#X\ 8aa	.	.	.	.	.	.	.	.	.	.	.	.	.
4EE^/ 4E	8gg\ 8bb-	.	.	.	.	.	.	.	.	.	.	.	.	.
.	8ff#\J 8aa	.	.	.	.	.	.	.	.	.	.	.	.	.
2E^\ 2e	8ee\L 8gg	.	.	.	.	.	.	.	.	.	.	.	.	.
.	8dd\ 8ff#X	.	.	.	.	.	.	.	.	.	.	.	.	.
.	8cc#X\ 8ee	.	.	.	.	.	.	.	.	.	.	.	.	.
.	8bn\J 8dd	.	.	.	.	.	.	.	.	.	.	.	.	.
=8	=8	=8	=8	=8	=8	=8	=8	=8	=8	=8	=8	=8	=8	=8
4FF#X/ 4F#X	8a#X\L 8cc#X	.	1r	.	.	.	1r	.	.	.	1ryy	.	.	.
.	8b\ 8dd	.	.	.	.	.	.	.	.	.	.	.	.	.
8F#\L 8f#X	8cc#\ 8ee	.	.	.	.	.	.	.	.	.	.	.	.	.
8F#\J 8f#	8dd\J 8ff#X	.	.	.	.	.	.	.	.	.	.	.	.	.
4F#\ 4f#	8ee\L 8gg#X	.	.	.	.	.	.	.	.	.	.	.	.	.
.	8ff#\ 8aa#X	.	.	.	.	.	.	.	.	.	.	.	.	.
4F#\ 4f#	8gg#\ 8bb	.	.	.	.	.	.	.	.	.	.	.	.	.
.	8aa#\J 8ccc#X	.	.	.	.	.	.	.	.	.	.	.	.	.
=9||	=9||	=9||	=9||	=9||	=9||	=9||	=9||	=9||	=9||	=9||	=9||	=9||	=9||	=9||
*k[f#c#]	*k[f#c#]	*	*k[f#c#]	*	*	*	*k[f#c#]	*	*	*	*k[f#c#]	*	*	*
8BB\L 8F# 8B	8bb\L 8ddd	ff	8B\	.	.	.	8d\	Chwy-	Lo ar-	.	1ryy	.	.	.
8BB\J 8F# 8B	8ff#\J 8ccc#	.	8c#\	.	.	.	8c#\	-tać	-re-	.	.	.	.	.
4BB\ 4F# 4B	4dd\ 4bb	.	4B\	.	.	.	4B\	go!	-stiam!	.	.	.	.	.
8BB\L 8G 8B	8dd\L 8ee#X 8ddd	.	8B\	.	.	.	8d\	Chwy-	Lo	.	.	.	.	.
8BB\J 8G 8B	8dd\J 8ee# 8ccc#	.	8c#\	.	.	.	8c#\	-tać	ar re-	.	.	.	.	.
4BB\ 4G 4B	4dd\ 4ee# 4bb	.	4B\	.	.	.	4B\	go!	-stiam!	.	.	.	.	.
=10	=10	=10	=10	=10	=10	=10	=10	=10	=10	=10	=10	=10	=10	=10
*	*8va	*	*	*	*	*	*	*	*	*	*	*	*	*
*	*^	*	*	*	*	*	*^	*	*	*	*	*	*	*
4BB^\ 4B	4.ff#/ 4.fff#	4ddd\	.	4B^\	.	.	.	4.f#/	4d^\	po-	ver-	.	1ryy	.	.	.
4AA#X^\ 4A#X	.	4ccc#\	.	4A#X^\	.	.	.	.	4c#^\	.	.	.	.	.	.	.
.	8ff#/ 8fff#	.	.	.	.	.	.	8f#/	.	-dłe	-me im-	.	.	.	.	.
4AAn^\ 4An	4ff#\ 4cccn 4fff#	2ryy	.	4An^\	.	.	.	4f#/	4cn\	ple-	-mon-	.	.	.	.	.
4GG#X^/ 4G#X	4ee#X/ 4bb 4eee#X	.	.	4G#X^\	.	.	.	4e#X/	4B\	-mię!	-do!	.	.	.	.	.
*	*v	*v	*	*	*	*	*	*	*	*	*	*	*	*	*	*
=11	=11	=11	=11	=11	=11	=11	=11	=11	=11	=11	=11	=11	=11	=11	=11
8GGn/L 8Gn	8een/L 8bb 8eeen	.	8G\	.	.	.	8B\ 8en	2ryy	Ka-	Vuol	.	1ryy	.	.	.
8GG/J 8G	8ff#/J 8bb 8fff#	.	8G\	.	.	.	8B\ 8f#	.	-lać	mac-	.	.	.	.	.
4GG/ 4G	4ee/ 4bb 4eee	.	4G\	.	.	.	4B\ 4e	.	śmie!	-chiar,	.	.	.	.	.
8FF#/L 8F#	8ff#/L 8bb 8ddd	.	8F#\	.	.	.	8d/	8d\	ka-	vuol	.	.	.	.	.
8FF#/J 8F#	8ff#/J 8ccc#	.	8F#\	.	.	.	8c#/	8c#\	-lać	mac-	.	.	.	.	.
4FF#/ 4F#	4dd/ 4ff# 4bb	.	4F#\	.	.	.	4B/	4B\	śmie	-chiar	.	.	.	.	.
=12	=12	=12	=12	=12	=12	=12	=12	=12	=12	=12	=12	=12	=12	=12	=12
.	8qccc#/	.	.	.	.	.	.	.	.	.	.	.	.	.	.
*	*^	*	*	*	*	*	*	*	*	*	*	*	*	*	*
4EE/ 4E	8bb/L	4ee^\ 4gg	.	4E\	.	.	.	8B/L	8B\L	świę-	que-	.	1ryy	.	.	.
.	8aa#X/	.	.	.	.	.	.	8A#X/J	8A#\J	.	.	.	.	.	.	.
4EE#X/ 4E#X	8bb/	4dd^\ 4gg#X	.	4E#X\	.	.	.	8B/L	8B\L	-tą	-sto	.	.	.	.	.
.	8ccc#/J	.	.	.	.	.	.	8c#/J	8c#\J	.	.	.	.	.	.	.
8FF#/ 8F#	8bb/ 8ddd	8dd^\ 8ff#	.	4F#\	.	.	.	4d/	4d\	zie-	tem-	.	.	.	.	.
8r	8r	8r	.	.	.	.	.	.	.	.	.	.	.	.	.	.
8DD/ 8D	4dd/ 4ff# 4aan 4ddd	4ryy	???	4D\	.	.	.	4d/	4d\	-mię	-pio,	.	.	.	.	.
8r	.	.	.	.	.	.	.	.	.	.	.	.	.	.	.	.
=13	=13	=13	=13	=13	=13	=13	=13	=13	=13	=13	=13	=13	=13	=13	=13	=13
4GG/ 4G	8gg\L 8bb	4ryy	.	8G\	.	.	.	8B/	8B\	Chmu-	Des-	.	1ryy	.	.	.
.	8ddd\J	.	.	8B\	.	.	.	8d/	8d\	-ra	-sta in	.	.	.	.	.
2G^\ 2B 2d	4.ggg/	2gg\ 2bb	.	4G^\	.	.	.	4B^\ 4g	4ryy	strzał	noi	.	.	.	.	.
.	.	.	.	4r	.	.	.	4r	2ryy	.	.	.	.	.	.	.
.	8ddd/L	.	.	.	.	.	.	.	.	.	.	.	.	.	.	.
4DD^/ 4D	8bb/	4gg\	.	4D\	.	.	.	4G/ 4B	.	i	or-	.	.	.	.	.
.	8ddd/J	.	.	.	.	.	.	.	.	.	.	.	.	.	.	.
*	*	*	*	*	*	*	*	*v	*v	*	*	*	*	*	*	*
=14	=14	=14	=14	=14	=14	=14	=14	=14	=14	=14	=14	=14	=14	=14	=14
4EE-X^/ 4E-X	8cccn/L	4gg\	.	4E-X\	.	.	.	4.G/ 4.cn	grad	-ror	.	1ryy	.	.	.
.	8bb/	.	.	.	.	.	.	.	.	.	.	.	.	.	.
4EEn^/ 4En	8aa/	4gg\	.	4En\	.	.	.	.	.	.	.	.	.	.	.
.	8bb/J	.	.	.	.	.	.	8G/ 8c	ka-	pro-	.	.	.	.	.
4FFn^/ 4Fn	8ccc/L	4aa\	.	4Fn\	.	.	.	4A\ 4d	-mie-	-fon-	.	.	.	.	.
.	8bb/	.	.	.	.	.	.	.	.	.	.	.	.	.	.
4FF#X^/ 4F#X	8aa/	4aa\	.	4F#X\	.	.	.	4A\ 4c	-ni,	-do!	.	.	.	.	.
.	8ccc/J	.	.	.	.	.	.	.	.	.	.	.	.	.	.
=15	=15	=15	=15	=15	=15	=15	=15	=15	=15	=15	=15	=15	=15	=15	=15
4GG^/ 4G	8bb/L	4gg\	.	8G\	.	.	.	8B\L	Miej-	Ca-	.	1ryy	.	.	.
.	8ddd/J	.	.	8B\	.	.	.	8d\J	-sce	-da or-	.	.	.	.	.
2G^\ 2B 2d	4.ggg/	2gg\ 2bb	.	4G^\	.	.	.	4B^\ 4g	to	-mai,	.	.	.	.	.
.	.	.	.	4r	.	.	.	4r	.	.	.	.	.	.	.
.	8ddd/L	.	.	.	.	.	.	.	.	.	.	.	.	.	.
4DD^/ 4D	8bb/	4gg\	.	4D\	.	.	.	4G/ 4B	niech	pe-	.	.	.	.	.
.	8ddd/J	.	.	.	.	.	.	.	.	.	.	.	.	.	.
=16	=16	=16	=16	=16	=16	=16	=16	=16	=16	=16	=16	=16	=16	=16	=16
4EE-X^/ 4E-X	8cccn/L	4gg\	.	4E-X\	.	.	.	4.G/ 4.cn	krwią	-ri-	.	1ryy	.	.	.
.	8bb/	.	.	.	.	.	.	.	.	.	.	.	.	.	.
4EEn^/ 4En	8aa/	4gg\	.	4En\	.	.	.	.	.	.	.	.	.	.	.
.	8bb/J	.	.	.	.	.	.	8G/ 8c	zru-	-sca	.	.	.	.	.
4FFn^/ 4Fn	8ccc/L	4aa\	.	4Fn\	.	.	.	4A\ 4d	-mie-	l'em-	.	.	.	.	.
.	8bb/	.	.	.	.	.	.	.	.	.	.	.	.	.	.
4FF#X^/ 4F#X	8ddd/	4aa\	.	4F#X\	.	.	.	4A/	-ni!	-pio!	.	.	.	.	.
.	8ccc/J	.	.	.	.	.	.	.	.	.	.	.	.	.	.
*	*v	*v	*	*	*	*	*	*	*	*	*	*	*	*	*
=17	=17	=17	=17	=17	=17	=17	=17	=17	=17	=17	=17	=17	=17	=17
4r	8bb/L	.	8B\	Czyż	L'o-	.	1r	.	.	.	1ryy	.	.	.
.	8aa#X/	.	8A#X\	ma	-ra	.	.	.	.	.	.	.	.	.
4GG^/ 4BB 4D 4G	8bb/J	.	4B\	ujść	sua	.	.	.	.	.	.	.	.	.
.	8r	.	.	.	.	.	.	.	.	.	.	.	.	.
4r	8ccc#X\L	.	8c#X\	śmier-	gia	.	.	.	.	.	.	.	.	.
.	8bb\	.	8B\	-ci-	suo-	.	.	.	.	.	.	.	.	.
4F#^\ 4A#X 4c#	8ccc#\J	.	4c#\	-szpon?	-no.	.	.	.	.	.	.	.	.	.
.	8r	.	.	.	.	.	.	.	.	.	.	.	.	.
=18	=18	=18	=18	=18	=18	=18	=18	=18	=18	=18	=18	=18	=18	=18
*	*	*	*	*	*	*	*^	*	*	*	*	*	*	*
4r	8eee\L	.	1r	.	.	.	8e/	8e\	Zgon	Co-	.	1ryy	.	.	.
.	8ddd#X\	.	.	.	.	.	8d#X/	8d#\	mu	-si il	.	.	.	.	.
4C#^\ 4E 4An	8eee\J	.	.	.	.	.	4e/	4e\	zgon!	Ciel	.	.	.	.	.
*	*X8va	*	*	*	*	*	*	*	*	*	*	*	*	*	*
.	8r	.	.	.	.	.	.	.	.	.	.	.	.	.	.
4r	8ee\L	.	.	.	.	.	8e\ 8g	4ryy	zgon	de-	.	.	.	.	.
.	8dd\	.	.	.	.	.	8d#\ 8f#	.	mu	-cre-	.	.	.	.	.
4BB^\ 4E 4G	8ee\J	.	.	.	.	.	4e/	4e\	zgon	-to.	.	.	.	.	.
.	8r	.	.	.	.	.	.	.	.	.	.	.	.	.	.
*	*	*	*	*	*	*	*v	*v	*	*	*	*	*	*	*
=19	=19	=19	=19	=19	=19	=19	=19	=19	=19	=19	=19	=19	=19	=19
4r	8cccn\L	.	8cn\	.	L'o-	.	1r	.	.	.	1ryy	.	.	.
.	8ddd\	.	8d\	.	-ra	.	.	.	.	.	.	.	.	.
4AA\ 4Cn 4E 4A	8ccc^\J	.	4c\	.	sua	.	.	.	.	.	.	.	.	.
.	8r	.	.	.	.	.	.	.	.	.	.	.	.	.
4r	8bb\L	.	8B\	.	gia	.	.	.	.	.	.	.	.	.
.	8ccc\	.	8c\	.	suo-	.	.	.	.	.	.	.	.	.
4GG/ 4BB 4E 4G	8bb^\J	.	4B\	.	-no.	.	.	.	.	.	.	.	.	.
.	8r	.	.	.	.	.	.	.	.	.	.	.	.	.
=20	=20	=20	=20	=20	=20	=20	=20	=20	=20	=20	=20	=20	=20	=20
*	*	*	*	*	*	*	*^	*	*	*	*	*	*	*
4r	8eee\L	.	1r	.	.	.	8e/	8e\	Zgon	Co-	.	1ryy	.	.	.
.	8fff#\	.	.	.	.	.	8f#/	8f#\	mu	-si il	.	.	.	.	.
4C#X\ 4E 4A#X	8eee^\J	.	.	.	.	.	4e/	4e\	zgon!	Ciel	.	.	.	.	.
.	8r	.	.	.	.	.	.	.	.	.	.	.	.	.	.
4r	8ee\L	.	.	.	.	.	8a/	8e\	zgon	de-	.	.	.	.	.
.	8ff#\	.	.	.	.	.	8d#X/	8d#\	mu	-cre-	.	.	.	.	.
4Cn\ 4E 4An	8ee\J	.	.	.	.	.	4e/	4e\	zgon	-to	.	.	.	.	.
.	8r	.	.	.	.	.	.	.	.	.	.	.	.	.	.
*	*	*	*	*	*	*	*v	*v	*	*	*	*	*	*	*
=21	=21	=21	=21	=21	=21	=21	=21	=21	=21	=21	=21	=21	=21	=21
4BB'\ 4B	8ee\L 8gg#X	.	8G\	.	Al-	.	4r	.	.	.	1ryy	.	.	.
.	8bb\J	.	8B\	.	-la	.	.	.	.	.	.	.	.	.
2E^\ 2G#X 2B	4.ee^\ 4.gg# 4.eee	.	2B^\	.	mor-	.	2e^\ 2g#X	zgon	Mor-	.	.	.	.	.
.	8bb\L	.	.	.	.	.	.	.	.	.	.	.	.	.
4BB/	8gg#\	.	4B\	.	-te!	.	4e\ 4g#	mmu!	-te!	.	.	.	.	.
.	8ee\J	.	.	.	.	.	.	.	.	.	.	.	.	.
=22	=22	=22	=22	=22	=22	=22	=22	=22	=22	=22	=22	=22	=22	=22
4BB#X\ 4F# 4A	8ff#\L	.	4B#X^\	.	.	.	4.A^\ 4.f#	po-	Ver-	.	1ryy	.	.	.
.	8ee\	.	.	.	.	.	.	.	.	.	.	.	.	.
4C#\ 4F# 4A	8ff#\	.	4c#^\	.	.	.	.	.	.	.	.	.	.	.
.	8gg#X\J	.	.	.	.	.	8A\ 8f#	-dłe	-me im-	.	.	.	.	.
4D\ 4F# 4A	8aa\L	.	4d^\	.	.	.	4A\ 4f#	ple-	-mon-	.	.	.	.	.
.	8gg#\	.	.	.	.	.	.	.	.	.	.	.	.	.
4D#X\ 4F# 4B	8aa\	.	4d#X^\	.	.	.	4A\ 4f#	-mię	-do!	.	.	.	.	.
.	8bb\J	.	.	.	.	.	.	.	.	.	.	.	.	.
=23	=23	=23	=23	=23	=23	=23	=23	=23	=23	=23	=23	=23	=23	=23
*	*	*	*	*	*	*	*^	*	*	*	*	*	*	*
4E\ 4G#X 4B	8gg#X\L	.	8e^\	.	.	.	8e/	8e\	On	Ei	.	1ryy	.	.	.
.	8bb\J	.	8r	.	.	.	8r	8ryy	.	.	.	.	.	.	.
2E^\ 2G# 2B	4.ee^\ 4.gg# 4.eee	.	2B^\	.	.	.	2e^\ 2g#X	2ryy	ka-	vuol	.	.	.	.	.
.	8bb\L	.	.	.	.	.	.	.	.	.	.	.	.	.	.
4BB/	8gg#\	.	4B^\	.	.	.	4B^\ 4g#	4ryy	-la	mac-	.	.	.	.	.
.	8bb\J	.	.	.	.	.	.	.	.	.	.	.	.	.	.
*	*	*	*	*	*	*	*v	*v	*	*	*	*	*	*	*
=24	=24	=24	=24	=24	=24	=24	=24	=24	=24	=24	=24	=24	=24	=24
4BB#X\ 4F# 4A	8aa\L	.	4B#X^\	.	.	.	4.A^\ 4.f#	świę-	-chiar	.	1ryy	.	.	.
.	8gg#X\	.	.	.	.	.	.	.	.	.	.	.	.	.
4C#\ 4F# 4A	8ff#\	.	4c#^\	.	.	.	.	.	.	.	.	.	.	.
.	8gg#\J	.	.	.	.	.	8A\ 8f#	-tą	il	.	.	.	.	.
4D\ 4F# 4A	8aa\L	.	4d^\	.	.	.	4A\ 4f#	zie-	tem-	.	.	.	.	.
.	8gg#\	.	.	.	.	.	.	.	.	.	.	.	.	.
4D#X\ 4F# 4B	8bb\	.	4d#X^\	.	.	.	4B\	-mię	-pio!	.	.	.	.	.
.	8aa\J	.	.	.	.	.	.	.	.	.	.	.	.	.
=25	=25	=25	=25	=25	=25	=25	=25	=25	=25	=25	=25	=25	=25	=25
4E\ 4G 4B	8ggn\L	.	8e\	.	L'o-	.	1r	.	.	.	1ryy	.	.	.
.	8ff#\	.	8B\	.	-ra	.	.	.	.	.	.	.	.	.
4E\ 4G 4B	8ee^\J 8gg	.	4B\	.	sua	.	.	.	.	.	.	.	.	.
.	8r	.	.	.	.	.	.	.	.	.	.	.	.	.
4r	8aa\L	.	8B\	.	gia	.	.	.	.	.	.	.	.	.
.	8gg\	.	8B\	.	suo-	.	.	.	.	.	.	.	.	.
4D#X\ 4F# 4B	8ff#^\J 8aa	.	4B\	.	-no!	.	.	.	.	.	.	.	.	.
.	8r	.	.	.	.	.	.	.	.	.	.	.	.	.
=26	=26	=26	=26	=26	=26	=26	=26	=26	=26	=26	=26	=26	=26	=26
*	*8va	*	*	*	*	*	*	*	*	*	*	*	*	*
4r	8bb/L	.	1r	.	.	.	8e\	Zgon	Co-	.	1ryy	.	.	.
.	8aa/	.	.	.	.	.	8e\	mu	-si il	.	.	.	.	.
4Dn\ 4E 4B	8gg#X^/J 8bb	.	.	.	.	.	4e\	zgon,	Ciel	.	.	.	.	.
.	8r	.	.	.	.	.	.	.	.	.	.	.	.	.
4r	8ccc#X/L	.	.	.	.	.	8e\	zgon	de-	.	.	.	.	.
.	8bb/	.	.	.	.	.	8e\	mu	-cre-	.	.	.	.	.
4C#X\ 4E 4A	8aa/J 8ccc#	.	.	.	.	.	4e\	zgon,	-to.	.	.	.	.	.
.	8r	.	.	.	.	.	.	.	.	.	.	.	.	.
=27	=27	=27	=27	=27	=27	=27	=27	=27	=27	=27	=27	=27	=27	=27
4r	8ddd\L	.	8d\	.	.	.	8d\	Czy	L'o-	.	1ryy	.	.	.
.	8ccc#\	.	8c#\	.	.	.	8c#\	ma	-ra	.	.	.	.	.
4BB\ 4D 4G	8gg\J 8ddd	.	4B\	.	.	.	4d\	ujść	sua	.	.	.	.	.
.	8r	.	.	.	.	.	.	.	.	.	.	.	.	.
4r	8eee\L	.	8c#\	.	.	.	8e\	śmier-	gia	.	.	.	.	.
.	8ddd#X\	.	8B\	.	.	.	8d#X\	-ci	suo-	.	.	.	.	.
4AA\ 4C# 4A	8gg\J 8eee	.	4A\	.	.	.	4e\	szpon?	-no!	.	.	.	.	.
.	8r	.	.	.	.	.	.	.	.	.	.	.	.	.
=28	=28	=28	=28	=28	=28	=28	=28	=28	=28	=28	=28	=28	=28	=28
4r	8bb\L 8eee#X	.	8Gn\ 8B	.	.	.	8e#X\	Zgon	Co-	.	1ryy	.	.	.
.	8bb\ 8eee#	.	8G\ 8B	.	.	.	8e#\	mu	-si il	.	.	.	.	.
4GG/ 4BB 4G	8bb\J 8eee#	.	4G\ 4B	.	.	.	4e#\	zgon!	Ciel	.	.	.	.	.
.	8r	.	.	.	.	.	.	.	.	.	.	.	.	.
4r	8aa#X\L 8fff#	.	8F#\ 8A#X	.	.	.	8f#\	zgon	de-	.	.	.	.	.
.	8ccc#\ 8eee#	.	8F#\ 8A#	.	.	.	8c#\	mu	-cre-	.	.	.	.	.
4FF#/ 4AA#X 4C# 4F#	8aa#^\J 8fff#	.	4F#\ 4A#	.	.	.	4c#\	zgon!	-to.	.	.	.	.	.
.	8r	.	.	.	.	.	.	.	.	.	.	.	.	.
=29	=29	=29	=29	=29	=29	=29	=29	=29	=29	=29	=29	=29	=29	=29
4BB\ 4D 4F#	8ddd\L	.	4r	.	.	.	8B\L	tak!	Si!	.	1ryy	.	.	.
.	8fff#\J	.	.	.	.	.	8d\J	.	.	.	.	.	.	.
2BB^\ 2D 2F# 2B	4.ddd^\ 4.fff# 4.dddd	.	2B^\	.	.	.	2d^\ 2f#	zgon	mor-	.	.	.	.	.
*	*X8va	*	*	*	*	*	*	*	*	*	*	*	*	*
.	8ccc#\L	.	.	.	.	.	.	.	.	.	.	.	.	.
4FF#^/ 4F#	8bb\	.	4F#^\	.	.	.	4B\ 4d	mu	-te!	.	.	.	.	.
.	8aa\J	.	.	.	.	.	.	.	.	.	.	.	.	.
=30	=30	=30	=30	=30	=30	=30	=30	=30	=30	=30	=30	=30	=30	=30
4GG/ 4G	8gg\L	.	4G^\	.	.	.	4.B^\ 4.e	Po-	Ver-	.	1ryy	.	.	.
.	8ff#\	.	.	.	.	.	.	.	.	.	.	.	.	.
4GG#X/ 4G#X	8ee\	.	4G#X^\	.	.	.	.	.	.	.	.	.	.	.
.	8dd\J	.	.	.	.	.	8B\ 8e	-dłe	-me im-	.	.	.	.	.
4AA\ 4A	8cc#\L	.	4A^\	.	.	.	4c#\ 4e	ple-	-mon-	.	.	.	.	.
.	8dd\	.	.	.	.	.	.	.	.	.	.	.	.	.
4AA#X\ 4A#X	8ee\	.	4A#X^\	.	.	.	4c#\ 4e	-mię	-do!	.	.	.	.	.
.	8ff#\J	.	.	.	.	.	.	.	.	.	.	.	.	.
=31	=31	=31	=31	=31	=31	=31	=31	=31	=31	=31	=31	=31	=31	=31
4BB\ 4B	8dd\L	.	4B\	.	.	.	4B'\ 4d	on	Ei	.	1ryy	.	.	.
.	8ff#\J	.	.	.	.	.	.	.	.	.	.	.	.	.
2BB^\ 2D 2F# 2B	4.dd^\ 4.ff# 4.ddd	.	2B^\	.	.	.	2d\ 2f#	ka-	vuol	.	.	.	.	.
.	8ccc#\L	.	.	.	.	.	.	.	.	.	.	.	.	.
4FF#/ 4F#	8bb\	.	4F#^\	.	.	.	4B\ 4d	-la	mac-	.	.	.	.	.
.	8aa\J	.	.	.	.	.	.	.	.	.	.	.	.	.
=32	=32	=32	=32	=32	=32	=32	=32	=32	=32	=32	=32	=32	=32	=32
4GG/ 4G	8gg\L	.	4G^\	.	.	.	4.B\ 4.e	świę-	-chiar	.	1ryy	.	.	.
.	8ff#\	.	.	.	.	.	.	.	.	.	.	.	.	.
4GG#X/ 4G#X	8ee\	.	4G#X^\	.	.	.	.	.	.	.	.	.	.	.
.	8dd\J	.	.	.	.	.	8B\ 8e	-tą	il	.	.	.	.	.
4AA\ 4A	8cc#\L	.	4A^\	.	.	.	4c#\ 4e	zie-	tem-	.	.	.	.	.
.	8dd\	.	.	.	.	.	.	.	.	.	.	.	.	.
4AA#X\ 4A#X	8ee\	.	4A#X^\	.	.	.	4c#\ 4f#	-mię,	-pio.	.	.	.	.	.
.	8ff#\J	.	.	.	.	.	.	.	.	.	.	.	.	.
=33	=33	=33	=33	=33	=33	=33	=33	=33	=33	=33	=33	=33	=33	=33
*	*	*	*	*	*	*	*^	*	*	*	*	*	*	*
4BB^\ 4B	4dd^\	ff	4B^\	.	.	.	4.f#/	4d\	Chmu-	De-	.	1ryy	.	.	.
4FF#^/ 4F#	4ff#^\ 4aa#X 4ccc#	.	4A#X^\	.	.	.	.	4c#X^\	.	.	.	.	.	.	.
.	.	.	.	.	.	.	8f#/	.	-ra	-sta in	.	.	.	.	.
4AAn\ 4An	4ee^\ 4aan 4cccn	.	4An^\	.	.	.	4.e/	4cn^\	strzał	noi	.	.	.	.	.
4EE^/ 4E	4ee^\ 4gg#X 4bb	.	4G^\	.	.	.	.	4B^\	.	.	.	.	.	.	.
.	.	.	.	.	.	.	8e/	.	i	or-	.	.	.	.	.
=34	=34	=34	=34	=34	=34	=34	=34	=34	=34	=34	=34	=34	=34	=34	=34
4GGn/ 4Gn	4dd^\ 4gg 4bb-X	.	4Gn^\	.	.	.	4.d/	4B-X\	grad	-ror	.	1ryy	.	.	.
4DD/ 4D	4dd^\ 4ff# 4aa	.	4F#^\	.	.	.	.	4A^\	.	.	.	.	.	.	.
.	.	.	.	.	.	.	8d/	.	ka-	pro-	.	.	.	.	.
4EE/ 4E	4b^\ 4ee 4gg#X	.	4B^\	.	.	.	4B-/	4G#X^\	-mie-	-fon-	.	.	.	.	.
4AAA#X/ 4AA#X	4cc#X^\ 4ee 4ggn	.	4A#X^\ 4c#	.	.	.	4e/	4Gn^\	-ni	-do.	.	.	.	.	.
=35	=35	=35	=35	=35	=35	=35	=35	=35	=35	=35	=35	=35	=35	=35	=35
4BBB/ 4BB	(8ff#\L	.	8B\	.	.	.	8F#/ 8d	8ryy	Miej-	Ca-	.	1ryy	.	.	.
.	8dd\J)	.	8B\	.	.	.	8B\ 8d	8ryy	-sce	-da or	.	.	.	.	.
4D^\ 4F# 4B	4bb^\	.	8B\	.	.	.	8d/	8d\	to	mai,	.	.	.	.	.
.	.	.	8r	.	.	.	8r	8ryy	.	.	.	.	.	.	.
4E\	(8gg\L	.	4.E^\ 4.B	.	.	.	4.e^\ 4.g	2ryy	Nie-	Si,	.	.	.	.	.
.	8ee\	.	.	.	.	.	.	.	.	.	.	.	.	.	.
4G\ 4B 4e	8b\	.	.	.	.	.	.	.	.	.	.	.	.	.	.
.	8cc#\J)	.	8G\ 8B	.	.	.	8d\ 8g	.	-chaj	pe-	.	.	.	.	.
=36	=36	=36	=36	=36	=36	=36	=36	=36	=36	=36	=36	=36	=36	=36	=36
*	*	*	*^	*	*	*	*	*	*	*	*	*	*	*	*
4F#\	(8dd\L	.	4.F#\ 4.B	4.ryy	.	.	.	4.B\ 4.d	4.ryy	krwią	-ri-	.	1ryy	.	.	.
.	8b\J)	.	.	.	.	.	.	.	.	.	.	.	.	.	.	.
4B^\ 4d	4ff#\	.	.	.	.	.	.	.	.	.	.	.	.	.	.	.
.	.	.	8F#/	8F#\	.	.	.	8B\ 8d	8ryy	zru-	-sca	.	.	.	.	.
4D\	(8ff#\L	.	4F#\ 4A#X	4ryy	.	.	.	4c#/	4c#\	-mie-	Vem-	.	.	.	.	.
.	8aa#X\	.	.	.	.	.	.	.	.	.	.	.	.	.	.	.
4A#X\ 4c# 4f#	8ccc#\	.	4F#/	4F#\	.	.	.	4f#/	4f#\	-ni	-pio	.	.	.	.	.
.	8eee\J)	.	.	.	.	.	.	.	.	.	.	.	.	.	.	.
*	*	*	*v	*v	*	*	*	*	*	*	*	*	*	*	*	*
*	*	*	*	*	*	*	*v	*v	*	*	*	*	*	*	*
=37	=37	=37	=37	=37	=37	=37	=37	=37	=37	=37	=37	=37	=37	=37
4E^\ 4e	4ggn\ 4bb 4eee	fff	4.E\ 4.B	.	.	.	4e^\ 4g	Czyż	Vuol	.	1ryy	.	.	.
4BB^\ 4B	4ff#\ 4bb 4ddd#X	.	.	.	.	.	4d#X^\ 4f#	ma	mac-	.	.	.	.	.
.	.	.	8B\	.	.	.	.	.	.	.	.	.	.	.
4D^\ 4d	4ffn\ 4aa 4dddn	.	4.A\	.	.	.	4dn^\ 4fn	ujść	-chiar	.	.	.	.	.
4AA^\ 4A	4ee\ 4aa 4ccc#	.	.	.	.	.	4c#^\ 4e	to	di	.	.	.	.	.
.	.	.	8A\	.	.	.	.	.	.	.	.	.	.	.
=38	=38	=38	=38	=38	=38	=38	=38	=38	=38	=38	=38	=38	=38	=38
4Cn^\ 4cn	4ee-X\ 4gg 4cccn	.	4.G\	.	.	.	4cn\ 4e-X	po-	Bra-	.	1ryy	.	.	.
4GG^/ 4G	4dd\ 4gg 4bb	.	.	.	.	.	4B\ 4d	-dłe	-ma il	.	.	.	.	.
.	.	.	8G\	.	.	.	.	.	.	.	.	.	.	.
4FF#^/ 4F#	4b\ 4dd#X 4aa	.	4F#\	.	.	.	4B^\ 4d#X	ple-	tem-	.	.	.	.	.
4EE^/ 4E	4a#X\ 4cc# 4ggn	.	4E\	.	.	.	4c#X^\ 4e-	-mię	-pio.	.	.	.	.	.
=39	=39	=39	=39	=39	=39	=39	=39	=39	=39	=39	=39	=39	=39	=39
*	*	*	*^	*	*	*	*^	*	*	*	*	*	*	*
4DD/ 4D	8b\L 8dd 8ff#	.	8D^\	8ryy	.	.	.	8B^\ 8f#	8ryy	śmier-	L'o-	.	1ryy	.	.	.
.	8bb\J	.	8F#'\	8ryy	.	.	.	8B\ 8d	8ryy	-ci	-ra	.	.	.	.	.
4D^\ 4F# 4B	4ff#\ [4fff#	.	4B'\	4ryy	.	.	.	4B/	4B\	szpon?	sua	.	.	.	.	.
4EE/ 4E	8fff#\L]	.	4.E^\ 4.B	4.ryy	.	.	.	4.e^\ 4.g	4.ryy	Zgon	gia	.	.	.	.	.
.	8eee\	.	.	.	.	.	.	.	.	.	.	.	.	.	.	.
4E\ 4G 4B	8ddd\	.	.	.	.	.	.	.	.	.	.	.	.	.	.	.
.	8ccc#\J	.	8G/	8G\	.	.	.	8B\ 8e	8ryy	mu	suo-	.	.	.	.	.
*	*	*	*	*	*	*	*	*v	*v	*	*	*	*	*	*	*
=40	=40	=40	=40	=40	=40	=40	=40	=40	=40	=40	=40	=40	=40	=40	=40
4FF#/ 4F#	8bb\L	.	4F#/	4F#\	.	.	.	4B\ 4d	zgon!	-no,	.	1ryy	.	.	.
.	8ccc#\	.	.	.	.	.	.	.	.	.	.	.	.	.	.
4F#\ 4B 4d	8ddd\	.	8F#\ 8B	8ryy	.	.	.	8B\ 8d	chwy-	lo ar-	.	.	.	.	.
.	8bb\J	.	8F#\ 8B	8ryy	.	.	.	8B\ 8d	-tać	-res-	.	.	.	.	.
4F#\	4ff#\	.	4.F#\ 4.A#X	4.ryy	.	.	.	4.c#\ 4.f#	go!	-tiam!	.	.	.	.	.
4FF#/ 4AA#X 4C# 4F#	4ff#\ 4aa#X 4ccc# 4fff#	???	.	.	.	.	.	.	.	.	.	.	.	.	.
.	.	.	8r	8ryy	.	.	.	8r	.	.	.	.	.	.	.
*	*	*	*v	*v	*	*	*	*	*	*	*	*	*	*	*
=41	=41	=41	=41	=41	=41	=41	=41	=41	=41	=41	=41	=41	=41	=41
8BB^\L 8D 8F# 8B	8dd\L 8ff# 8ddd	.	8B'\	.	.	.	8d'\ 8f#	Zgon	Co-	.	1ryy	.	.	.
8BB\J 8D 8F# 8B	8dd\J 8ff# 8ccc#	.	8B'\	.	.	.	8d'\ 8f#	mu	-si il	.	.	.	.	.
4BB\ 4D 4F# 4B	4dd\ 4ff# 4bb	.	4B\	.	.	.	4d'\ 4f#	zgon,	Ciel	.	.	.	.	.
8BB^\L 8G 8B	8dd\L 8ee#X 8ddd	.	8B'\	.	.	.	8d'\ 8e#X	chwy-	de-	.	.	.	.	.
8BB\J 8G 8B	8dd\J 8ee# 8ccc#	.	8B'\	.	.	.	8d'\ 8e#	-tać	-cre-	.	.	.	.	.
4BB\ 4G 4B	4dd\ 4ee# 4bb	.	4B\	.	.	.	4d\ 4fn	go!	-to!	.	.	.	.	.
=42	=42	=42	=42	=42	=42	=42	=42	=42	=42	=42	=42	=42	=42	=42
8BB^\L 8D 8F# 8B	8dd\L 8ff# 8ddd	.	8B'\	.	.	.	8d\ 8f#	Zgon	Co-	.	1ryy	.	.	.
8BB\J 8D 8F# 8B	8dd\J 8ff# 8ccc#	.	8B'\	.	.	.	8d\	mu	-si il	.	.	.	.	.
4BB\ 4D 4F# 4B	4dd\ 4ff# 4bb	.	4B\	.	.	.	4B\	zgon!	Ciel	.	.	.	.	.
8BB^\L 8E#X 8B	8dd\L 8gg 8ddd	.	8B'\	.	.	.	8d\ 8g	Szar-	de-	.	.	.	.	.
8BB\J 8E# 8B	8dd\J 8gg 8ccc#	.	8B'\	.	.	.	8d\	-pać	-cre-	.	.	.	.	.
4BB\ 4E# 4B	4dd\ 4gg 4bb	.	4B\	.	.	.	4B\	go!	-to!	.	.	.	.	.
=43	=43	=43	=43	=43	=43	=43	=43	=43	=43	=43	=43	=43	=43	=43
8BB^\L 8F# 8B	8dd\L 8ff# 8ddd	.	8B'\	.	.	.	8d\ 8f#	Zgon	Lo ar-	.	1ryy	.	.	.
8BB\J 8F# 8B	8dd\J 8ff# 8ccc#	.	8B'\	.	.	.	8d\ 8f#	mu	-re-	.	.	.	.	.
4BB\ 4F# 4B	4dd\ 4ff# 4bb	.	4B\	.	.	.	4d\ 4f#	zgon	-stiam,	.	.	.	.	.
8BB^\L 8G 8B	8dd\L 8ee#X 8ddd	.	8B'\	.	.	.	8d\ 8e#X	chwy-	l'uc-	.	.	.	.	.
8BB\J 8G 8B	8dd\J 8ee# 8ccc#	.	8B'\	.	.	.	8d\ 8e#	-tać	-ci-	.	.	.	.	.
4BB\ 4G 4B	4dd\ 4ee# 4bb	.	4B\	.	.	.	4d\ 4e#	go!	-diam!	.	.	.	.	.
=44	=44	=44	=44	=44	=44	=44	=44	=44	=44	=44	=44	=44	=44	=44
!	!	!	!	!	!	!	!	!	!	!	!LO:TX:a:t=(Paria spostrzega Idamora, pada nagle przed nim na kolana składa, błagalnie ręce, wzywając ocalenia)\n(Il Paria si avvede della presenza di Idamor, gli corre incontro, si inginodchia dinanzi a lui, e solleva le mani congiunte, in atto d'implorare pieta)	!	!	!
8BB^\L 8F# 8B	8dd\L 8ff# 8ddd	.	8B\	.	.	.	8d'\ 8f#	Zgon	Lo ar-	.	1r	.	.	.
8BB\J 8F# 8B	8dd\J 8ff# 8ccc#	.	8B\	.	.	.	8d\	mu	-re-	.	.	.	.	.
4BB\ 4F# 4B	4dd\ 4ff# 4bb	.	4B\	.	.	.	4B\	zgon!	-stiam,	.	.	.	.	.
8BB^\L 8E#X 8B	8dd\L 8gg 8ddd	.	8B\	.	.	.	8d'\ 8g	Szar-	l'uc-	.	.	.	.	.
8BB\J 8E# 8B	8dd\J 8gg 8ccc#	.	8B\	.	.	.	8d\	-pać	-ci-	.	.	.	.	.
4BB\ 4E# 4B	4dd\ 4gg 4bb	.	4B\	.	.	.	4B\	go!	-diam!	.	.	.	.	.
=45	=45	=45	=45	=45	=45	=45	=45	=45	=45	=45	=45	=45	=45	=45
8BB\L	[2ff#\ [2bb [2ddd [2fff#	???	2.B^\	.	.	.	2.d^\ 2.f#	Po-	Mor-	.	1r	.	.	.
8D\	.	.	.	.	.	.	.	.	.	.	.	.	.	.
8F#\	.	.	.	.	.	.	.	.	.	.	.	.	.	.
8B\J	.	.	.	.	.	.	.	.	.	.	.	.	.	.
4d\	8ff#\L] 8bb] 8ddd] 8fff#]	.	.	.	.	.	.	.	.	.	.	.	.	.
.	8ddd\	.	.	.	.	.	.	.	.	.	.	.	.	.
4BB\ 4D 4F# 4B	8bb\	.	4B\	.	.	.	4d\ 4f#	-dłe!	-te!	.	.	.	.	.
.	8ccc#\J	.	.	.	.	.	.	.	.	.	.	.	.	.
=46	=46	=46	=46	=46	=46	=46	=46	=46	=46	=46	=46	=46	=46	=46
4BB\ 4D 4F# 4B	8ddd\L	.	4B\	.	.	.	4d\ 4f#	po-	L'o-	.	1r	.	.	.
.	8bb\	.	.	.	.	.	.	.	.	.	.	.	.	.
4BB\ 4D 4F# 4B	8ff#\	.	4B\	.	.	.	4d\	-dłe	-ra	.	.	.	.	.
.	8gg\J	.	.	.	.	.	.	.	.	.	.	.	.	.
4BB\ 4D 4F# 4B	8ff#\L	.	4.B^\	.	.	.	4.d^\	ple-	sua	.	.	.	.	.
.	8bb\	.	.	.	.	.	.	.	.	.	.	.	.	.
4BB\ 4D 4F# 4B	8ff#\	.	.	.	.	.	.	.	.	.	.	.	.	.
.	8dd\J	.	8BB/	.	.	.	8B\	-mię	suo-	.	.	.	.	.
=47	=47	=47	=47	=47	=47	=47	=47	=47	=47	=47	=47	=47	=47	=47
4BB\ 4D 4F# 4B	4b\	.	4BB/	.	.	.	4B\	to.	-no.	.	2r	.	.	.
4r	4r	.	4r	.	.	.	4r	.	.	.	.	.	.	.
4BBB/ 4BB	4b\ 4dd 4ff# 4bb	???	2r	.	.	.	2r	.	.	.	4r	.	.	.
4r	4r	.	.	.	.	.	.	.	.	.	4dd\	Wstrzy-	Fer-	.
=48	=48	=48	=48	=48	=48	=48	=48	=48	=48	=48	=48	=48	=48	=48
1r	1r	.	1r	.	.	.	1r	.	.	.	[2.ff#\	-maj-	-ma-	.
.	.	.	.	.	.	.	.	.	.	.	8ff#\]	.	.	.
.	.	.	.	.	.	.	.	.	.	.	8f#/	-cie	-te	.
=49||	=49||	=49||	=49||	=49||	=49||	=49||	=49||	=49||	=49||	=49||	=49||	=49||	=49||	=49||
*M4/4	*M4/4	*	*M4/4	*	*	*	*M4/4	*	*	*	*M4/4	*	*	*
*met(c)	*met(c)	*	*met(c)	*	*	*	*met(c)	*	*	*	*met(c)	*	*	*
!	!	!	!	!	!	!	!	!	!	!	!LO:TX:a:t=Moderato.	!	!	!
2r;	2r;	.	2r;	.	.	.	2r;	.	.	.	4f#/	się	vi!	.
.	.	.	.	.	.	.	.	.	.	.	4r;	.	.	.
2r	8r	.	8r	.	.	.	8r	.	.	.	2r	.	.	.
!	!LO:TX:a:t=Cor.	!	!	!	!	!LO:DY:a	!LO:TX:a:t=(wstrzymują się nagle)\n(si arrestano subitamente)	!	!	!LO:DY:a	!	!	!	!
.	8F#/L 8f#	pp	8F#\	.	.	p	8F#/	Ach	Qua-	p	.	.	.	.
.	8F#/ 8f#	.	8F#\	.	.	.	8F#/	czy	-le	.	.	.	.	.
.	8F#/J 8f#	.	8F#\	.	.	.	8F#/	to	stu-	.	.	.	.	.
=50	=50	=50	=50	=50	=50	=50	=50	=50	=50	=50	=50	=50	=50	=50
*	*^	*	*	*	*	*	*	*	*	*	*	*	*	*
1DD 1D	2f#/	16F#\	.	2D\	.	.	.	2F#/	sen?	-por!	.	1r	.	.	.
!	!LO:TX:a:t=V-le e V-IIi	!	!	!	!	!	!	!	!	!	!	!	!	!	!
.	.	(16F#\LL	.	.	.	.	.	.	.	.	.	.	.	.	.
.	.	16B\	.	.	.	.	.	.	.	.	.	.	.	.	.
.	.	16c#\JJ	.	.	.	.	.	.	.	.	.	.	.	.	.
!	!LO:TX:a:t=P:problem:mixed beam	!	!	!	!	!	!	!	!	!	!	!	!	!	!
.	.	16d\LL	.	.	.	.	.	.	.	.	.	.	.	.	.
.	.	16B\	.	.	.	.	.	.	.	.	.	.	.	.	.
.	.	16d\	.	.	.	.	.	.	.	.	.	.	.	.	.
.	.	16e\JJ)	.	.	.	.	.	.	.	.	.	.	.	.	.
.	8f#/	8ryy	.	8r	.	.	.	8r	.	.	.	.	.	.	.
.	8F#/L 8f#	8ryy	.	8F#\	.	.	.	8F#/	do-	So-	.	.	.	.	.
.	8F#/ 8f#	8ryy	.	8F#\	.	.	.	8F#/	-wód-	-gno	.	.	.	.	.
.	8F#/J 8f#	8ryy	.	8F#\	.	.	.	8F#/	-ca	non	.	.	.	.	.
*	*v	*v	*	*	*	*	*	*	*	*	*	*	*	*	*
=51	=51	=51	=51	=51	=51	=51	=51	=51	=51	=51	=51	=51	=51	=51
1CC# 1C#	16F#/ 16f#	.	2C#/	.	.	.	2F#/ 2A	nasz?	e?	.	1r	.	.	.
!	!LO:TX:a:t=V-ni.	!	!	!	!	!	!	!	!	!	!	!	!	!
.	(16c#/LL	.	.	.	.	.	.	.	.	.	.	.	.	.
.	16f#/	.	.	.	.	.	.	.	.	.	.	.	.	.
.	16g#X/JJ	.	.	.	.	.	.	.	.	.	.	.	.	.
.	16a/LL	.	.	.	.	.	.	.	.	.	.	.	.	.
.	16f#/	.	.	.	.	.	.	.	.	.	.	.	.	.
.	16a/	.	.	.	.	.	.	.	.	.	.	.	.	.
.	16b/JJ)	.	.	.	.	.	.	.	.	.	.	.	.	.
.	8cc#\	.	8.r	.	.	.	8.r	.	.	.	.	.	.	.
.	16r	.	.	.	.	.	.	.	.	.	.	.	.	.
.	16F#/KL 16f#	.	16F#\	.	.	.	16F#/	On	Ei	.	.	.	.	.
.	8F#/ 8f#	.	8F#\	.	.	.	8F#/	sam!	qui,	.	.	.	.	.
.	16r	.	16r	.	.	.	16r	.	.	.	.	.	.	.
.	16F#/Jk 16f#	.	16F#\	.	.	.	16F#/	on	ei	.	.	.	.	.
=52	=52	=52	=52	=52	=52	=52	=52	=52	=52	=52	=52	=52	=52	=52
2BBB\ 2BB	16F#/ 16f#	.	2BB/ 2D	.	.	.	2F#/	sam!	qui!	.	1r	.	.	.
.	(16f#/LL	<	.	.	.	.	.	.	.	.	.	.	.	.
.	16d/	.	.	.	.	.	.	.	.	.	.	.	.	.
.	16f#/JJ	.	.	.	.	.	.	.	.	.	.	.	.	.
.	16b\LL	.	.	.	.	.	.	.	.	.	.	.	.	.
.	16cc#\	.	.	.	.	.	.	.	.	.	.	.	.	.
.	16dd\	.	.	.	.	.	.	.	.	.	.	.	.	.
.	16ee\JJ)	.	.	.	.	.	.	.	.	.	.	.	.	.
8r	8ff#\	.	8r	.	.	.	8r	.	.	.	.	.	.	.
!	!	!	!	!	!	!LO:DY:a	!	!	!	!LO:DY:a	!	!	!	!
8BB^\L 8B	8b^\L	[ f	8B\	.	.	<	8B\	to	Il	<	.	.	.	.
8C#^\ 8c#	8cc#^\	.	8c#\	.	.	.	8c#\	je-	no-	.	.	.	.	.
8D^\J 8d	8dd^\J	.	8d\	.	.	[[	8d\	-go,	-stro	[[	.	.	.	.
=53	=53	=53	=53	=53	=53	=53	=53	=53	=53	=53	=53	=53	=53	=53
!	!LO:TX:b:t=rall.	!	!LO:TX:a:t=rall.	!	!	!LO:DY:a	!LO:TX:a:t=rall.	!	!	!LO:DY:a	!	!	!	!
2.BBB\ 2.BB	2.G#X/ 2.d 2.e#X	sf >	4..d\	.	.	>	4..d\	je-	du-	>	1r	.	.	.
.	.	.	16BB/ 16D	.	.	.	16E#X/	-go	-ce e-	.	.	.	.	.
.	.	.	4BB/ 4D	.	.	]	4E#/	głos.	-gli e.	]	.	.	.	.
8.BBB\L 8.BB	8.G#/L 8.d 8.e#	] pp	4r	.	.	.	4r	.	.	.	.	.	.	.
16AAA#X\Jk 16AA#X	16G#/Jk 16c# 16e#	.	.	.	.	.	.	.	.	.	.	.	.	.
=54	=54	=54	=54	=54	=54	=54	=54	=54	=54	=54	=54	=54	=54	=54
!	!	!	!	!	!	!	!	!	!	!	!LO:TX:a:t=(spokojnie)\n(tranquillamente)	!	!	!
8qBBB/	.	.	.	.	.	.	.	.	.	.	.	.	.	.
1BB	1G#X 1d 1e#X	.	1r	.	.	.	1r	.	.	.	2r	.	.	.
.	.	.	.	.	.	.	.	.	.	.	4dd\	Cóż	Qual	.
.	.	.	.	.	.	.	.	.	.	.	8dd\	wam	di	.
.	.	.	.	.	.	.	.	.	.	.	8dd\	za-	quest'	.
=55	=55	=55	=55	=55	=55	=55	=55	=55	=55	=55	=55	=55	=55	=55
1Cn 1A	1d 1f#	.	1r	.	.	.	1r	.	.	.	4.dd\	-wi-	uo-	.
.	.	.	.	.	.	.	.	.	.	.	8dd\	-nił	-mo	.
.	.	.	.	.	.	.	.	.	.	.	4.ee\	czło-	fu il	.
.	.	.	.	.	.	.	.	.	.	.	8dd\	-wiek	fal-	.
=56	=56	=56	=56	=56	=56	=56	=56	=56	=56	=56	=56	=56	=56	=56
1BB 1G	1d 1g	.	1r	.	.	.	1r	.	.	.	4dd\	ten?	-lir?	.
.	.	.	.	.	.	.	.	.	.	.	4r	.	.	.
.	.	.	.	.	.	.	.	.	.	.	4dd\	Za	Di	.
.	.	.	.	.	.	.	.	.	.	.	8b\	co	vo-	.
.	.	.	.	.	.	.	.	.	.	.	8ccn\	smier-	-stra	.
=57	=57	=57	=57	=57	=57	=57	=57	=57	=57	=57	=57	=57	=57	=57
1AA 1D	1d 1f# 1ccn	.	1r	.	.	.	1r	.	.	.	4.dd\	-tel-	man	.
.	.	.	.	.	.	.	.	.	.	.	8dd\	-ny	per-	.
.	.	.	.	.	.	.	.	.	.	.	4ff#\	gro-	-che	.
.	.	.	.	.	.	.	.	.	.	.	8.ee\	-zi-	de'	.
.	.	.	.	.	.	.	.	.	.	.	16ccn\	-mu	pe-	.
=58	=58	=58	=58	=58	=58	=58	=58	=58	=58	=58	=58	=58	=58	=58
(2GG/ 2G	1B 1g 1b	.	1r	.	.	.	1r	.	.	.	2b\	cios?	-rir?	.
4FF#/ 4F#	.	.	.	.	.	.	.	.	.	.	2r	.	.	.
4EE/) 4E	.	.	.	.	.	.	.	.	.	.	.	.	.	.
=59	=59	=59	=59	=59	=59	=59	=59	=59	=59	=59	=59	=59	=59	=59
!	!	!	!	!	!	!LO:DY:a	!LO:TX:a:t=(głocho - ze wzrastającym oburzeniem i do słów&colon;to Paria! to Paria!)\n(da principio a voce sorda, poi con crescente indignazione)	!	!	!LO:DY:a	!	!	!	!
8DD#X/L 8D#X	4..B/ 4..f# 4..b	.	4..B^\	.	.	p	4..B^\	Pa-	D'uo-	p	1ryy	.	.	.
8D#/ 8F#	.	.	.	.	.	.	.	.	.	.	.	.	.	.
8D#/ 8F#	.	.	.	.	.	.	.	.	.	.	.	.	.	.
8D#/J 8F#	.	.	.	.	.	.	.	.	.	.	.	.	.	.
.	16B/ 16f# 16a#X	.	16A#X\	.	.	.	16A#X/	-nie!	-mo il	.	.	.	.	.
8.D#\L 8.F#	8.B/L 8.f# 8.a#	.	8.A#\	.	.	.	8.A#/	któż	no-	.	.	.	.	.
16D#\K 16F#	16B/K 16f# 16an	.	16An\	.	.	.	16An/	czło-	-me	.	.	.	.	.
8.D#\ 8.F#	8.B/ 8.f# 8.a	.	8.A\	.	.	.	8.A/	-wie-	non	.	.	.	.	.
16D#\Jk 16F#	16B#X/Jk 16f# 16g#X	.	16G#X\	.	.	.	16G#X/	-kiem	mer-	.	.	.	.	.
=60	=60	=60	=60	=60	=60	=60	=60	=60	=60	=60	=60	=60	=60	=60
8D#X\ 8F#	8B#X/L 8f# 8g#X	.	[2G#X\	.	.	.	[2G#X/	zwie!	-to	.	1ryy	.	.	.
16r	16r	.	.	.	.	.	.	.	.	.	.	.	.	.
16DD#X/ 16D#	16B#/K 16f# 16g#	f	.	.	.	.	.	.	.	.	.	.	.	.
8.DD#/L 8.D#	8.B#/ 8.f# 8.g#	.	.	.	.	.	.	.	.	.	.	.	.	.
16DD#/Jk 16D#	16B#/Jk 16f# 16g#	.	.	.	.	.	.	.	.	.	.	.	.	.
8.DD#/L 8.D#	8.B#/L 8.f# 8.g#	.	8G#\]	.	.	.	8G#/]	.	.	.	.	.	.	.
.	.	.	8r	.	.	.	8r	.	.	.	.	.	.	.
16DD#/K 16D#	16B#/K 16f# 16g#	.	.	.	.	.	.	.	.	.	.	.	.	.
8.DD#/ 8.D#	8.B#/ 8.f# 8.g#	.	4G#\	.	.	.	4G#/	Po-	L'im-	.	.	.	.	.
16DD#/Jk 16D#	16B#/Jk 16f# 16g#	.	.	.	.	.	.	.	.	.	.	.	.	.
=61	=61	=61	=61	=61	=61	=61	=61	=61	=61	=61	=61	=61	=61	=61
*M8/4	*M8/4	*	*M8/4	*	*	*	*M8/4	*	*	*	*M8/4	*	*	*
8.EE/ 8.E	4..c#/ 4..g#X 4..cc#	fp	4..c#^\	.	.	.	4..c#^\	-two-	-mon-	.	0ryy	.	.	.
16E\KL 16G#X	.	.	.	.	.	.	.	.	.	.	.	.	.	.
8.E\ 8.G#	.	.	.	.	.	.	.	.	.	.	.	.	.	.
16E\Jk 16G#	16c#/ 16g# 16b#X	.	16B#X\	.	.	.	16B#X\	-ra	-do	.	.	.	.	.
8.E\L 8.G#	8.c#/L 8.g# 8.b#	.	8.B#\	.	.	.	8.B#\	co	che	.	.	.	.	.
16E\K 16G#	16c#/K 16g# 16bn	.	16Bn\	.	.	.	16Bn\	do-	t'im-	.	.	.	.	.
8.E\ 8.G#	8.c#/ 8.g# 8.b	.	8.B\	.	.	.	8.B\	-tknię-	-pie-	.	.	.	.	.
16E#X\Jk 16G#	16c##X/Jk 16g# 16a#X	.	16B-X\	.	.	.	16B-X\	-ciem	-to-	.	.	.	.	.
8E#\ 8G#	8c##X/L 8g#X 8a#X	.	[2B-X\	.	.	.	[2B-X\	swem,	-si,	.	.	.	.	.
16r	16r	.	.	.	.	.	.	.	.	.	.	.	.	.
16FFn/ 16BB-X 16Fn	16d/K 16a-X 16b-X	f	.	.	.	.	.	.	.	.	.	.	.	.
8.FF/L 8.BB- 8.F	8.d/ 8.a- 8.b-	.	.	.	.	.	.	.	.	.	.	.	.	.
16FF/Jk 16BB- 16F	16d/Jk 16a- 16b-	.	.	.	.	.	.	.	.	.	.	.	.	.
8.FF/L 8.BB- 8.F	8.d/L 8.a- 8.b-	.	8B-\]	.	.	.	8B-\]	.	.	.	.	.	.	.
.	.	.	8r	.	.	.	8r	.	.	.	.	.	.	.
16FF/K 16BB- 16F	16d/K 16a- 16b-	.	.	.	.	.	.	.	.	.	.	.	.	.
8.FF/ 8.BB- 8.F	8.d/ 8.a- 8.b-	.	4B-\	.	.	.	4B-\	Co	Che il	.	.	.	.	.
16FF/Jk 16BB- 16F	16d/Jk 16a- 16b-	.	.	.	.	.	.	.	.	.	.	.	.	.
=62||	=62||	=62||	=62||	=62||	=62||	=62||	=62||	=62||	=62||	=62||	=62||	=62||	=62||	=62||
*k[b-e-]	*k[b-e-]	*	*k[b-e-]	*	*	*	*k[b-e-]	*	*	*	*k[b-e-]	*	*	*
*M4/4	*M4/4	*	*M4/4	*	*	*	*M4/4	*	*	*	*M4/4	*	*	*
*met(c)	*met(c)	*	*met(c)	*	*	*	*met(c)	*	*	*	*met(c)	*	*	*
8GG-X/ 8BB- 8G-X	4..e-^/ 4..b- 4..ee-	mf	4.G\ 4.B-	.	.	.	4.e-\	śla-	sa-	.	1ryy	.	.	.
16r	.	.	.	.	.	.	.	.	.	.	.	.	.	.
16G-\ 16B-	.	.	.	.	.	.	.	.	.	.	.	.	.	.
8.G-\L 8.B-	.	.	.	.	.	.	.	.	.	.	.	.	.	.
.	.	.	8G\ 8B-	.	.	.	8d\	-dem	-cro	.	.	.	.	.
16G-\Jk 16B-	16d/ 16b- 16dd	.	.	.	.	.	.	.	.	.	.	.	.	.
8.G-\L 8.B-	8.d/L 8.b- 8.dd	.	8.G\ 8.B-	.	.	.	8.d\	stóp	suo-	.	.	.	.	.
16G-\K 16B-	16d-X/K 16dd-X	.	16G\ 16B-	.	.	.	16d-X\	za-	-lo	.	.	.	.	.
8.G-\ 8.B-	8.d-/ 8.dd-	.	8.G\ 8.B-	.	.	.	8.d-\	-tru-	cal-	.	.	.	.	.
16Gn\Jk 16B-	16c/Jk 16en 16cc	.	16Gn\ 16B-	.	.	.	16c\	-tym	-pe-	.	.	.	.	.
=63	=63	=63	=63	=63	=63	=63	=63	=63	=63	=63	=63	=63	=63	=63
8G\ 8B-	8c/L 8e- 8cc	.	[2G\ [2B-	.	.	.	[2c\	tchem	-sto	.	1ryy	.	.	.
16r	16r	.	.	.	.	.	.	.	.	.	.	.	.	.
16GG/ 16C 16G	16c/K 16e- 16cc	f	.	.	.	.	.	.	.	.	.	.	.	.
8.GG/L 8.C 8.G	8.c/ 8.e- 8.cc	.	.	.	.	.	.	.	.	.	.	.	.	.
16GG/Jk 16C 16G	16c/Jk 16e- 16b- 16cc	.	.	.	.	.	.	.	.	.	.	.	.	.
8.GG/L 8.C 8.G	8.c/L 8.e- 8.b- 8.cc	.	8G\] 8B-]	.	.	.	8c\]	.	.	.	.	.	.	.
.	.	.	8r	.	.	.	8r	.	.	.	.	.	.	.
16GG/K 16C 16G	16c/K 16e- 16b- 16cc	.	.	.	.	.	.	.	.	.	.	.	.	.
8.GG/ 8.C 8.G	8.c/ 8.e- 8.b- 8.cc	.	4c\	.	.	.	4c\	Znie-	Mac-	.	.	.	.	.
16GG/Jk 16C 16G	16c/Jk 16e- 16cc	.	.	.	.	.	.	.	.	.	.	.	.	.
=64	=64	=64	=64	=64	=64	=64	=64	=64	=64	=64	=64	=64	=64	=64
16AA-X\ 16C 16A-X	4..f\ 4..cc 4..ff	fp	4..A^\ 4..c	.	.	.	4..f^\	-wa-	-chiar	.	1ryy	.	.	.
16r	.	.	.	.	.	.	.	.	.	.	.	.	.	.
8A-\ 8c	.	.	.	.	.	.	.	.	.	.	.	.	.	.
8.A-\L 8.c	.	.	.	.	.	.	.	.	.	.	.	.	.	.
16A-\Jk 16c	16f\ 16cc 16ee-	.	16A\ 16c	.	.	.	16en\	-ża	di	.	.	.	.	.
8.A-\L 8.c	8.f/L 8.cc 8.ee-	.	8.A\ 8.c	.	.	.	8.e\	świę-	Bra-	.	.	.	.	.
16A-\K 16c	16f/K 16cc 16ee-X	.	16A\ 16c	.	.	.	16e-X\	-te	-ma il	.	.	.	.	.
8.A-\ 8.c	8.f/ 8.cc 8.ee-	.	8.A\ 8.c	.	.	.	8.e-\	miej-	tem-	.	.	.	.	.
16An\Jk 16c	16f#X/Jk 16cc 16dd	.	16An\ 16c	.	.	.	16d\	-sca	-pio ar-	.	.	.	.	.
=65	=65	=65	=65	=65	=65	=65	=65	=65	=65	=65	=65	=65	=65	=65
8A\ 8c	8.f#X/L 8.cc 8.dd	.	[2An\ [2c	.	.	.	[2d\	te?	-di!	.	1ryy	.	.	.
16r	.	.	.	.	.	.	.	.	.	.	.	.	.	.
16AA\ 16D 16A	16d/K 16f# 16cc 16dd	ff	.	.	.	.	.	.	.	.	.	.	.	.
8.AA\L 8.D 8.A	8.d/ 8.f# 8.cc 8.dd	.	.	.	.	.	.	.	.	.	.	.	.	.
16AA\Jk 16D 16A	16d/Jk 16f# 16cc 16dd	.	.	.	.	.	.	.	.	.	.	.	.	.
8.AA\L 8.D 8.A	8.d/L 8.f# 8.cc 8.dd	.	8A\] 8c]	.	.	.	8d\]	.	.	.	.	.	.	.
.	.	.	8r	.	.	.	8r	.	.	.	.	.	.	.
16AA\K 16D 16A	16d/K 16f# 16cc 16dd	.	.	.	.	.	.	.	.	.	.	.	.	.
8AA\J 8D 8A	8.d/ 8.f# 8.cc 8.dd	.	4D\ 4d	.	.	.	4d\	Od	Lo	.	.	.	.	.
(32D^/LLL	.	.	.	.	.	.	.	.	.	.	.	.	.	.
32C/	.	.	.	.	.	.	.	.	.	.	.	.	.	.
32BB-/	16d/Jk 16f# 16cc 16dd	.	.	.	.	.	.	.	.	.	.	.	.	.
32AA/JJJ)	.	.	.	.	.	.	.	.	.	.	.	.	.	.
=66	=66	=66	=66	=66	=66	=66	=66	=66	=66	=66	=66	=66	=66	=66
!	!LO:TX:a:t=Tr. e Cor.	!	!	!	!	!	!	!	!	!	!	!	!	!
8GG/	4..g^\ 4..b- 4..dd	fp	4..d^\	.	.	.	4..d^\	ludz-	fug-	.	1ryy	.	.	.
32G\LLL 32B-	.	.	.	.	.	.	.	.	.	.	.	.	.	.
32d\	.	.	.	.	.	.	.	.	.	.	.	.	.	.
32G\ 32B-	.	.	.	.	.	.	.	.	.	.	.	.	.	.
32d\JJJ	.	.	.	.	.	.	.	.	.	.	.	.	.	.
32G\LLL 32B-	.	.	.	.	.	.	.	.	.	.	.	.	.	.
32d\	.	.	.	.	.	.	.	.	.	.	.	.	.	.
32G\ 32B-	.	.	.	.	.	.	.	.	.	.	.	.	.	.
32d\	.	.	.	.	.	.	.	.	.	.	.	.	.	.
32G\ 32B-	.	.	.	.	.	.	.	.	.	.	.	.	.	.
32d\	.	.	.	.	.	.	.	.	.	.	.	.	.	.
32G\ 32B-	16b-/	.	16B-\	.	.	.	16B-\	-kich	-ge il	.	.	.	.	.
32d\	.	.	.	.	.	.	.	.	.	.	.	.	.	.
32G\ 32B-	8.g\L	.	8.G\	.	.	.	8.G/	od-	po-	.	.	.	.	.
32d\	.	.	.	.	.	.	.	.	.	.	.	.	.	.
32G\ 32B-	.	.	.	.	.	.	.	.	.	.	.	.	.	.
32d\	.	.	.	.	.	.	.	.	.	.	.	.	.	.
32G\ 32B-	.	.	.	.	.	.	.	.	.	.	.	.	.	.
32d\	.	.	.	.	.	.	.	.	.	.	.	.	.	.
32G\ 32B-	16a\K	.	16A\	.	.	.	16A/	-trą-	-po-	.	.	.	.	.
32d\	.	.	.	.	.	.	.	.	.	.	.	.	.	.
32G\ 32B-	8.b-\	.	8.B-\	.	.	.	8.B-\	-co-	-lo	.	.	.	.	.
32d\	.	.	.	.	.	.	.	.	.	.	.	.	.	.
32G\ 32B-	.	.	.	.	.	.	.	.	.	.	.	.	.	.
32d\	.	.	.	.	.	.	.	.	.	.	.	.	.	.
32G\ 32B-	.	.	.	.	.	.	.	.	.	.	.	.	.	.
32d\	.	.	.	.	.	.	.	.	.	.	.	.	.	.
32G\ 32B-	16cc\Jk	.	16c\	.	.	.	16c\	-ny	fe-	.	.	.	.	.
32d\JJJ	.	.	.	.	.	.	.	.	.	.	.	.	.	.
=67	=67	=67	=67	=67	=67	=67	=67	=67	=67	=67	=67	=67	=67	=67
12G\L 12B- 12d	8dd^\	ff	2d\	.	.	.	2d\	praw,	-del,	.	1ryy	.	.	.
12G\ 12B- 12d	.	.	.	.	.	.	.	.	.	.	.	.	.	.
!	!LO:N:vis=16	!	!	!	!	!	!	!	!	!	!	!	!	!
!	!LO:TX:b:t=Tutti.	!	!	!	!	!	!	!	!	!	!	!	!	!
.	48ddd\LLL	.	.	.	.	.	.	.	.	.	.	.	.	.
!	!LO:N:vis=16	!	!	!	!	!	!	!	!	!	!	!	!	!
.	48ccc\	.	.	.	.	.	.	.	.	.	.	.	.	.
!	!LO:N:vis=16	!	!	!	!	!	!	!	!	!	!	!	!	!
12G\J 12B- 12d	48bb-\J	.	.	.	.	.	.	.	.	.	.	.	.	.
.	16ccc\JJ	.	.	.	.	.	.	.	.	.	.	.	.	.
12G\L 12B- 12d	12ddd'\L	.	.	.	.	.	.	.	.	.	.	.	.	.
12G\ 12B- 12d	12bb-'\	.	.	.	.	.	.	.	.	.	.	.	.	.
12G\J 12B- 12d	12gg'\J	.	.	.	.	.	.	.	.	.	.	.	.	.
12G\L 12B- 12d	8dd\	.	4r	.	.	.	4r	.	.	.	.	.	.	.
12G\ 12B- 12d	.	.	.	.	.	.	.	.	.	.	.	.	.	.
!	!LO:N:vis=16	!	!	!	!	!	!	!	!	!	!	!	!	!
.	48ee-\LLL	.	.	.	.	.	.	.	.	.	.	.	.	.
!	!LO:N:vis=16	!	!	!	!	!	!	!	!	!	!	!	!	!
.	48dd\	.	.	.	.	.	.	.	.	.	.	.	.	.
!	!LO:N:vis=16	!	!	!	!	!	!	!	!	!	!	!	!	!
12G\J 12B- 12d	48cc#X\J	.	.	.	.	.	.	.	.	.	.	.	.	.
.	16dd\JJ	.	.	.	.	.	.	.	.	.	.	.	.	.
12G\L 12B- 12d	12gg'\L	.	4d\	.	.	.	4d\	O-	La	.	.	.	.	.
12G\ 12B- 12d	12dd'\	.	.	.	.	.	.	.	.	.	.	.	.	.
12G\J 12B- 12d	12b-'\J	.	.	.	.	.	.	.	.	.	.	.	.	.
=68	=68	=68	=68	=68	=68	=68	=68	=68	=68	=68	=68	=68	=68	=68
8G\ 8B- 8e-	4..g\ 4..b- 4..ee-	fp	4..e-^\	.	.	.	4..e-^\	-dzie-	leg-	.	1ryy	.	.	.
32G\LLL 32B-	.	.	.	.	.	.	.	.	.	.	.	.	.	.
32e-\	.	.	.	.	.	.	.	.	.	.	.	.	.	.
32G\ 32B-	.	.	.	.	.	.	.	.	.	.	.	.	.	.
32e-\JJJ	.	.	.	.	.	.	.	.	.	.	.	.	.	.
32G\LLL 32B-	.	.	.	.	.	.	.	.	.	.	.	.	.	.
32e-\	.	.	.	.	.	.	.	.	.	.	.	.	.	.
32G\ 32B-	.	.	.	.	.	.	.	.	.	.	.	.	.	.
32e-\	.	.	.	.	.	.	.	.	.	.	.	.	.	.
32G\ 32B-	.	.	.	.	.	.	.	.	.	.	.	.	.	.
32e-\	.	.	.	.	.	.	.	.	.	.	.	.	.	.
32G\ 32B-	16b-\	.	16B-\	.	.	.	16B-\	-niem	-ge a	.	.	.	.	.
32e-\	.	.	.	.	.	.	.	.	.	.	.	.	.	.
32G\ 32B-	8.g/L	.	8.G\	.	.	.	8.G/	je-	lui	.	.	.	.	.
32e-\	.	.	.	.	.	.	.	.	.	.	.	.	.	.
32G\ 32B-	.	.	.	.	.	.	.	.	.	.	.	.	.	.
32e-\	.	.	.	.	.	.	.	.	.	.	.	.	.	.
32G\ 32B-	.	.	.	.	.	.	.	.	.	.	.	.	.	.
32e-\	.	.	.	.	.	.	.	.	.	.	.	.	.	.
32G\ 32B-	16f#X/K	.	16F#X\	.	.	.	16F#X/	-go	non	.	.	.	.	.
32e-\	.	.	.	.	.	.	.	.	.	.	.	.	.	.
32G\ 32B-	8.g/	.	8.G\	.	.	.	8.G/	zgni-	off-	.	.	.	.	.
32e-\	.	.	.	.	.	.	.	.	.	.	.	.	.	.
32G\ 32B-	.	.	.	.	.	.	.	.	.	.	.	.	.	.
32e-\	.	.	.	.	.	.	.	.	.	.	.	.	.	.
32G\ 32B-	.	.	.	.	.	.	.	.	.	.	.	.	.	.
32e-\	.	.	.	.	.	.	.	.	.	.	.	.	.	.
32G\ 32B-	16b-/Jk	.	16B-\	.	.	.	16B-/	-łe	-re e-	.	.	.	.	.
32e-\JJJ	.	.	.	.	.	.	.	.	.	.	.	.	.	.
=69	=69	=69	=69	=69	=69	=69	=69	=69	=69	=69	=69	=69	=69	=69
12G\L 12B- 12e-	8ee-^\	ff	2e-\	.	.	.	2e-\	szma-	-gi-	.	1ryy	.	.	.
12G\ 12B- 12e-	.	.	.	.	.	.	.	.	.	.	.	.	.	.
!	!LO:N:vis=16	!	!	!	!	!	!	!	!	!	!	!	!	!
.	48eee-\LLL	.	.	.	.	.	.	.	.	.	.	.	.	.
!	!LO:N:vis=16	!	!	!	!	!	!	!	!	!	!	!	!	!
.	48ddd\	.	.	.	.	.	.	.	.	.	.	.	.	.
!	!LO:N:vis=16	!	!	!	!	!	!	!	!	!	!	!	!	!
12G\J 12B- 12e-	48ccc\J	.	.	.	.	.	.	.	.	.	.	.	.	.
.	16ddd\JJ	.	.	.	.	.	.	.	.	.	.	.	.	.
12G\L 12B- 12e-	12eee-'\L	.	.	.	.	.	.	.	.	.	.	.	.	.
12G\ 12B- 12e-	12bb-'\	.	.	.	.	.	.	.	.	.	.	.	.	.
12G\J 12B- 12e-	12gg'\J	.	.	.	.	.	.	.	.	.	.	.	.	.
12G\L 12B- 12e-	8ee-\	.	8G\ 8B-	.	.	.	8e-\	-ty.	-da.	.	.	.	.	.
12G\ 12B- 12e-	.	.	.	.	.	.	.	.	.	.	.	.	.	.
!	!LO:N:vis=16	!	!	!	!	!	!	!	!	!	!	!	!	!
.	48ff\LLL	.	8r	.	.	.	8r	.	.	.	.	.	.	.
!	!LO:N:vis=16	!	!	!	!	!	!	!	!	!	!	!	!	!
.	48ee-\	.	.	.	.	.	.	.	.	.	.	.	.	.
!	!LO:N:vis=16	!	!	!	!	!	!	!	!	!	!	!	!	!
12G\J 12B- 12e-	48dd\J	.	.	.	.	.	.	.	.	.	.	.	.	.
.	16ee-\JJ	.	.	.	.	.	.	.	.	.	.	.	.	.
12G\L 12B- 12e-	12gg'\L	.	4G\ 4B-	.	.	.	4e-\	Po-	Re-	.	.	.	.	.
12G\ 12B- 12e-	12ee-'\	.	.	.	.	.	.	.	.	.	.	.	.	.
12G\J 12B- 12e-	12b-'\J	.	.	.	.	.	.	.	.	.	.	.	.	.
=70	=70	=70	=70	=70	=70	=70	=70	=70	=70	=70	=70	=70	=70	=70
8GG/ 8G	4..g\ 4..b- 4..cc#X 4..een	fp	4..G^\ 4..B-	.	.	.	4..en^\	-kar-	-jet-	.	1ryy	.	.	.
32G\LLL 32B-	.	.	.	.	.	.	.	.	.	.	.	.	.	.
32en\	.	.	.	.	.	.	.	.	.	.	.	.	.	.
32G\ 32B-	.	.	.	.	.	.	.	.	.	.	.	.	.	.
32e\JJJ	.	.	.	.	.	.	.	.	.	.	.	.	.	.
32G\LLL 32B-	.	.	.	.	.	.	.	.	.	.	.	.	.	.
32e\	.	.	.	.	.	.	.	.	.	.	.	.	.	.
32G\ 32B-	.	.	.	.	.	.	.	.	.	.	.	.	.	.
32e\	.	.	.	.	.	.	.	.	.	.	.	.	.	.
32G\ 32B-	.	.	.	.	.	.	.	.	.	.	.	.	.	.
32e\	.	.	.	.	.	.	.	.	.	.	.	.	.	.
32G\ 32B-	16cc#\	.	16B-\	.	.	.	16d\	-mem	-to	.	.	.	.	.
32e\	.	.	.	.	.	.	.	.	.	.	.	.	.	.
32G\ 32B-	8.b-\L	.	8.B-\	.	.	.	8.B-\	re-	l'han-	.	.	.	.	.
32e\	.	.	.	.	.	.	.	.	.	.	.	.	.	.
32G\ 32B-	.	.	.	.	.	.	.	.	.	.	.	.	.	.
32e\	.	.	.	.	.	.	.	.	.	.	.	.	.	.
32G\ 32B-	.	.	.	.	.	.	.	.	.	.	.	.	.	.
32e\	.	.	.	.	.	.	.	.	.	.	.	.	.	.
32G\ 32B-	16a\K	.	16A\	.	.	.	16A/	-szty	-no i	.	.	.	.	.
32e\	.	.	.	.	.	.	.	.	.	.	.	.	.	.
32G\ 32B-	8.b-\	.	8.B-\	.	.	.	8.B-\	li-	nu-	.	.	.	.	.
32e\	.	.	.	.	.	.	.	.	.	.	.	.	.	.
32G\ 32B-	.	.	.	.	.	.	.	.	.	.	.	.	.	.
32e\	.	.	.	.	.	.	.	.	.	.	.	.	.	.
32G\ 32B-	.	.	.	.	.	.	.	.	.	.	.	.	.	.
32e\	.	.	.	.	.	.	.	.	.	.	.	.	.	.
32G\ 32B-	16cc#\Jk	.	16G\ 16B-	.	.	.	16c#X\ 16e	-chych	-mie il	.	.	.	.	.
32e\JJJ	.	.	.	.	.	.	.	.	.	.	.	.	.	.
=71	=71	=71	=71	=71	=71	=71	=71	=71	=71	=71	=71	=71	=71	=71
12G\L 12B- 12c#X 12en	8een^\	ff	[2G\ [2B-	.	.	.	[2c#X\ [2en	straw	ciel	.	1ryy	.	.	.
12G\ 12B- 12c# 12e	.	.	.	.	.	.	.	.	.	.	.	.	.	.
!	!LO:N:vis=16	!	!	!	!	!	!	!	!	!	!	!	!	!
.	48eeen\LLL	.	.	.	.	.	.	.	.	.	.	.	.	.
!	!LO:N:vis=16	!	!	!	!	!	!	!	!	!	!	!	!	!
.	48ddd\	.	.	.	.	.	.	.	.	.	.	.	.	.
!	!LO:N:vis=16	!	!	!	!	!	!	!	!	!	!	!	!	!
12G\J 12B- 12c# 12e	48ccc#X\J	.	.	.	.	.	.	.	.	.	.	.	.	.
.	16ddd\JJ	.	.	.	.	.	.	.	.	.	.	.	.	.
12G\L 12B- 12c# 12e	12eee'\L	.	.	.	.	.	.	.	.	.	.	.	.	.
12G\ 12B- 12c# 12e	12gg'\	.	.	.	.	.	.	.	.	.	.	.	.	.
12G\J 12B- 12c# 12e	12bb-'\J	.	.	.	.	.	.	.	.	.	.	.	.	.
12G\L 12B- 12c# 12e	8ee'\	.	8G\] 8B-]	.	.	.	8c#\] 8e]	.	.	.	.	.	.	.
12G\ 12B- 12c# 12e	.	.	.	.	.	.	.	.	.	.	.	.	.	.
!	!LO:N:vis=16	!	!	!	!	!	!	!	!	!	!	!	!	!
.	48gg\LLL	.	8r	.	.	.	8r	.	.	.	.	.	.	.
!	!LO:N:vis=16	!	!	!	!	!	!	!	!	!	!	!	!	!
.	48ff\	.	.	.	.	.	.	.	.	.	.	.	.	.
!	!LO:N:vis=16	!	!	!	!	!	!	!	!	!	!	!	!	!
12G\J 12B- 12c# 12e	48ee\J	.	.	.	.	.	.	.	.	.	.	.	.	.
.	16ff\JJ	.	.	.	.	.	.	.	.	.	.	.	.	.
12G\L 12B- 12c# 12e	12gg'\L	.	4G\ 4B-	.	.	.	4c#\ 4e	Ze-	non	.	.	.	.	.
12G\ 12B- 12c# 12e	12ee'\	.	.	.	.	.	.	.	.	.	.	.	.	.
12G\J 12B- 12c# 12e	12gg'\J	.	.	.	.	.	.	.	.	.	.	.	.	.
=72	=72	=72	=72	=72	=72	=72	=72	=72	=72	=72	=72	=72	=72	=72
!	!LO:TX:b:t=tutta la forza	!	!	!	!	!	!	!	!	!	!	!	!	!
8GG/ 8G	4..bn^\ 4..dd 4..ff	.	4..G^\ 4..B-	.	.	.	4..d^\ 4..f	-schnię-	v'ha	.	1ryy	.	.	.
32G\LLL 32Bn 32d	.	.	.	.	.	.	.	.	.	.	.	.	.	.
32f\	.	.	.	.	.	.	.	.	.	.	.	.	.	.
32G\ 32B 32d	.	.	.	.	.	.	.	.	.	.	.	.	.	.
32f\JJJ	.	.	.	.	.	.	.	.	.	.	.	.	.	.
32G\LLL 32B 32d	.	.	.	.	.	.	.	.	.	.	.	.	.	.
32f\	.	.	.	.	.	.	.	.	.	.	.	.	.	.
32G\ 32B 32d	.	.	.	.	.	.	.	.	.	.	.	.	.	.
32f\	.	.	.	.	.	.	.	.	.	.	.	.	.	.
32G\ 32B 32d	.	.	.	.	.	.	.	.	.	.	.	.	.	.
32f\	.	.	.	.	.	.	.	.	.	.	.	.	.	.
32G\ 32B 32d	16dd\	.	16B-\	.	.	.	16d\	-te	con	.	.	.	.	.
32f\	.	.	.	.	.	.	.	.	.	.	.	.	.	.
32G\ 32B 32d	8.b\L	.	8.B-\	.	.	.	8.Bn\	ziel-	dan-	.	.	.	.	.
32f\	.	.	.	.	.	.	.	.	.	.	.	.	.	.
32G\ 32B 32d	.	.	.	.	.	.	.	.	.	.	.	.	.	.
32f\	.	.	.	.	.	.	.	.	.	.	.	.	.	.
32G\ 32B 32d	.	.	.	.	.	.	.	.	.	.	.	.	.	.
32f\	.	.	.	.	.	.	.	.	.	.	.	.	.	.
32G\ 32B 32d	16a#X\K	.	16A#X\	.	.	.	16A#X/	-ska	-na a	.	.	.	.	.
32f\	.	.	.	.	.	.	.	.	.	.	.	.	.	.
32G\ 32B 32d	8.b\	.	8.B-\	.	.	.	8.B\	je-	chi	.	.	.	.	.
32f\	.	.	.	.	.	.	.	.	.	.	.	.	.	.
32G\ 32B 32d	.	.	.	.	.	.	.	.	.	.	.	.	.	.
32f\	.	.	.	.	.	.	.	.	.	.	.	.	.	.
32G\ 32B 32d	.	.	.	.	.	.	.	.	.	.	.	.	.	.
32f\	.	.	.	.	.	.	.	.	.	.	.	.	.	.
32G\ 32B 32d	16dd\Jk	.	16d\	.	.	.	16d\	-go	l'ue-	.	.	.	.	.
32f\JJJ	.	.	.	.	.	.	.	.	.	.	.	.	.	.
=73	=73	=73	=73	=73	=73	=73	=73	=73	=73	=73	=73	=73	=73	=73
12G\L 12Bn 12d 12f	12bn\L 12dd 12ff	.	2G\ 2Bn	.	.	.	2d\ 2f	cha-	-ci-	.	1ryy	.	.	.
12G\ 12B 12d 12f	24fff\L	.	.	.	.	.	.	.	.	.	.	.	.	.
.	24eee-\	.	.	.	.	.	.	.	.	.	.	.	.	.
12G\ 12B 12d 12f	24ddd\	.	.	.	.	.	.	.	.	.	.	.	.	.
.	24ccc#X\JJ	.	.	.	.	.	.	.	.	.	.	.	.	.
12G\ 12B 12d 12f	24ddd\LL	.	.	.	.	.	.	.	.	.	.	.	.	.
.	24eee-\	.	.	.	.	.	.	.	.	.	.	.	.	.
12G\ 12B 12d 12f	24ddd\	.	.	.	.	.	.	.	.	.	.	.	.	.
.	24cccn\	.	.	.	.	.	.	.	.	.	.	.	.	.
12G\J 12B 12d 12f	24bbn\	.	.	.	.	.	.	.	.	.	.	.	.	.
.	24aa#X\JJ	.	.	.	.	.	.	.	.	.	.	.	.	.
12G\L 12B 12d 12f	24bb\LL	<	8G\ 8B	.	.	.	8d\ 8f	-ty	-da	.	.	.	.	.
.	24aa#\	.	.	.	.	.	.	.	.	.	.	.	.	.
12G\ 12B 12d 12f	24bb\	.	.	.	.	.	.	.	.	.	.	.	.	.
.	24aa#\	.	4r	.	.	.	8r	.	.	.	.	.	.	.
12G\ 12B 12d 12f	24bb\	.	.	.	.	.	.	.	.	.	.	.	.	.
.	24aa#\JJ	.	.	.	.	.	.	.	.	.	.	.	.	.
12G\ 12B 12d 12f	24bb\LL	.	.	.	.	.	8.r	.	.	.	.	.	.	.
.	24aa#\	.	.	.	.	.	.	.	.	.	.	.	.	.
12G\ 12B 12d 12f	24bb\	.	.	.	.	.	.	.	.	.	.	.	.	.
.	24ccc#X\	.	16r	.	.	.	.	.	.	.	.	.	.	.
12G\J 12B 12d 12f	24ddd\	.	.	.	.	.	.	.	.	.	.	.	.	.
.	.	.	16B\	.	.	.	16d\ 16f	To	E un	.	.	.	.	.
.	24eee-\JJ	[[	.	.	.	.	.	.	.	.	.	.	.	.
=74||	=74||	=74||	=74||	=74||	=74||	=74||	=74||	=74||	=74||	=74||	=74||	=74||	=74||	=74||
*k[f#c#]	*k[f#c#]	*	*k[f#c#]	*	*	*	*k[f#c#]	*	*	*	*k[f#c#]	*	*	*
*	*	*	*	*	*	*	*^	*	*	*	*	*	*	*
!	!LO:TX:b:t=tutta la forza	!	!	!	!	!	!LO:TX:a:t=Un poco largo.	!	!	!	!LO:DY:a	!	!	!	!
32FF#X/LLL	8bb\ 8ddd 8fff#	fff	2B\	.	.	.	2f#/	2d\	Pa-	Pa-	fff	1ryy	.	.	.
32F#X/	.	.	.	.	.	.	.	.	.	.	.	.	.	.	.
32FF#/	.	.	.	.	.	.	.	.	.	.	.	.	.	.	.
32F#/	.	.	.	.	.	.	.	.	.	.	.	.	.	.	.
32FF#/	8r	.	.	.	.	.	.	.	.	.	.	.	.	.	.
32F#/	.	.	.	.	.	.	.	.	.	.	.	.	.	.	.
32FF#/	.	.	.	.	.	.	.	.	.	.	.	.	.	.	.
32F#/	.	.	.	.	.	.	.	.	.	.	.	.	.	.	.
32FF#/	4r	.	.	.	.	.	.	.	.	.	.	.	.	.	.
32F#/	.	.	.	.	.	.	.	.	.	.	.	.	.	.	.
32FF#/	.	.	.	.	.	.	.	.	.	.	.	.	.	.	.
32F#/	.	.	.	.	.	.	.	.	.	.	.	.	.	.	.
32FF#/	.	.	.	.	.	.	.	.	.	.	.	.	.	.	.
32F#/	.	.	.	.	.	.	.	.	.	.	.	.	.	.	.
32FF#/	.	.	.	.	.	.	.	.	.	.	.	.	.	.	.
32F#/JJJ	.	.	.	.	.	.	.	.	.	.	.	.	.	.	.
32FF#/LLL	32cc#\LLL 32ff#	.	4A#X\	.	.	.	4F#/	4c#\	-rja!	-ria!	.	.	.	.	.
32F#/	32a#X\	.	.	.	.	.	.	.	.	.	.	.	.	.	.
32FF#/	32cc#\ 32ff#	.	.	.	.	.	.	.	.	.	.	.	.	.	.
32F#/	32a#\	.	.	.	.	.	.	.	.	.	.	.	.	.	.
32FF#/	32cc#\ 32ff#	.	.	.	.	.	.	.	.	.	.	.	.	.	.
32F#/	32a#\	.	.	.	.	.	.	.	.	.	.	.	.	.	.
32FF#/	32cc#\ 32ff#	.	.	.	.	.	.	.	.	.	.	.	.	.	.
32F#/	32a#\	.	.	.	.	.	.	.	.	.	.	.	.	.	.
32FF#/	32cc#\ 32ff#	.	8r	.	.	.	8.r	8ryy	.	.	.	.	.	.	.
32F#/	32a#\	.	.	.	.	.	.	.	.	.	.	.	.	.	.
32FF#/	32cc#\ 32ff#	.	.	.	.	.	.	.	.	.	.	.	.	.	.
32F#/	32a#\	.	.	.	.	.	.	.	.	.	.	.	.	.	.
32FF#/	32cc#\ 32ff#	.	16r	.	.	.	.	16ryy	.	.	.	.	.	.	.
32F#/	32a#\	.	.	.	.	.	.	.	.	.	.	.	.	.	.
32FF#/	32cc#\ 32ff#	.	16A#\	.	.	.	16f#/	16f#\	to	e un	.	.	.	.	.
32F#/JJJ	32a#\JJJ	.	.	.	.	.	.	.	.	.	.	.	.	.	.
=75	=75	=75	=75	=75	=75	=75	=75	=75	=75	=75	=75	=75	=75	=75	=75
32FF#/LLL	32ccn\LLL 32ff#	.	2An\	.	.	.	2f#/	2cn\	Pa-	Pa-	.	1ryy	.	.	.
32F#/	32an\	.	.	.	.	.	.	.	.	.	.	.	.	.	.
32FF#/	32cc\ 32ff#	.	.	.	.	.	.	.	.	.	.	.	.	.	.
32F#/	32a\	.	.	.	.	.	.	.	.	.	.	.	.	.	.
32FF#/	32cc\ 32ff#	.	.	.	.	.	.	.	.	.	.	.	.	.	.
32F#/	32a\	.	.	.	.	.	.	.	.	.	.	.	.	.	.
32FF#/	32cc\ 32ff#	.	.	.	.	.	.	.	.	.	.	.	.	.	.
32F#/	32a\	.	.	.	.	.	.	.	.	.	.	.	.	.	.
32FF#/	32cc\ 32ff#	.	.	.	.	.	.	.	.	.	.	.	.	.	.
32F#/	32a\	.	.	.	.	.	.	.	.	.	.	.	.	.	.
32FF#/	32cc\ 32ff#	.	.	.	.	.	.	.	.	.	.	.	.	.	.
32F#/	32a\	.	.	.	.	.	.	.	.	.	.	.	.	.	.
32FF#/	32cc\ 32ff#	.	.	.	.	.	.	.	.	.	.	.	.	.	.
32F#/	32a\	.	.	.	.	.	.	.	.	.	.	.	.	.	.
32FF#/	32cc\ 32ff#	.	.	.	.	.	.	.	.	.	.	.	.	.	.
32F#/JJJ	32a\JJJ	.	.	.	.	.	.	.	.	.	.	.	.	.	.
32FF#/LLL	32b\LLL 32ee 32ff#	.	4G#X\	.	.	.	4e/	4B\	-rja!	-ria!	.	.	.	.	.
32F#/	32g#X\	.	.	.	.	.	.	.	.	.	.	.	.	.	.
32FF#/	32b\ 32ee 32ff#	.	.	.	.	.	.	.	.	.	.	.	.	.	.
32F#/	32g#\	.	.	.	.	.	.	.	.	.	.	.	.	.	.
32FF#/	32b\ 32ee 32ff#	.	.	.	.	.	.	.	.	.	.	.	.	.	.
32F#/	32g#\	.	.	.	.	.	.	.	.	.	.	.	.	.	.
32FF#/	32b\ 32ee 32ff#	.	.	.	.	.	.	.	.	.	.	.	.	.	.
32F#/	32g#\	.	.	.	.	.	.	.	.	.	.	.	.	.	.
32FF#/	32b\ 32ee 32ff#	.	8r	.	.	.	8.r	4ryy	.	.	.	.	.	.	.
32F#/	32g#\	.	.	.	.	.	.	.	.	.	.	.	.	.	.
32FF#/	32b\ 32ee 32ff#	.	.	.	.	.	.	.	.	.	.	.	.	.	.
32F#/	32g#\	.	.	.	.	.	.	.	.	.	.	.	.	.	.
32FF#/	32b\ 32ee 32ff#	.	16r	.	.	.	.	.	.	.	.	.	.	.	.
32F#/	32g#\	.	.	.	.	.	.	.	.	.	.	.	.	.	.
32FF#/	32b\ 32ee 32ff#	.	16G#\	.	.	.	16B\ 16d	.	zdrój	L'im-	.	.	.	.	.
32F#/JJJ	32g#\JJJ	.	.	.	.	.	.	.	.	.	.	.	.	.	.
*	*	*	*	*	*	*	*v	*v	*	*	*	*	*	*	*
=76	=76	=76	=76	=76	=76	=76	=76	=76	=76	=76	=76	=76	=76	=76
32FF#/LLL	32b\LLL 32dd 32ee#X	.	4.Gn\	.	.	.	4..B\ 4..d	pla-	-pu-	.	1ryy	.	.	.
32F#/	32gn\	.	.	.	.	.	.	.	.	.	.	.	.	.
32FF#/	32b\ 32dd 32ee#	.	.	.	.	.	.	.	.	.	.	.	.	.
32F#/	32g\	.	.	.	.	.	.	.	.	.	.	.	.	.
32FF#/	32b\ 32dd 32ee#	.	.	.	.	.	.	.	.	.	.	.	.	.
32F#/	32g\	.	.	.	.	.	.	.	.	.	.	.	.	.
32FF#/	32b\ 32dd 32ee#	.	.	.	.	.	.	.	.	.	.	.	.	.
32F#/	32g\	.	.	.	.	.	.	.	.	.	.	.	.	.
32FF#/	32b\ 32dd 32ee#	.	.	.	.	.	.	.	.	.	.	.	.	.
32F#/	32g\	.	.	.	.	.	.	.	.	.	.	.	.	.
32FF#/	32b\ 32dd 32ee#	.	.	.	.	.	.	.	.	.	.	.	.	.
32F#/	32g\	.	.	.	.	.	.	.	.	.	.	.	.	.
32FF#/	32b\ 32dd 32ee#	.	8G\	.	.	.	.	.	.	.	.	.	.	.
32F#/	32g\	.	.	.	.	.	.	.	.	.	.	.	.	.
32FF#/	32b\ 32dd 32ee#	.	.	.	.	.	16B\ 16d	-mi	-ro	.	.	.	.	.
32F#/JJJ	32g\JJJ	.	.	.	.	.	.	.	.	.	.	.	.	.
32FF#/LLL	32b\LLL 32dd 32ff#	.	4F#\	.	.	.	4B\ 4d	je-	suo a-	.	.	.	.	.
32F#/	32f#\	.	.	.	.	.	.	.	.	.	.	.	.	.
32FF#/	32b\ 32dd 32ff#	.	.	.	.	.	.	.	.	.	.	.	.	.
32F#/	32f#\	.	.	.	.	.	.	.	.	.	.	.	.	.
32FF#/	32b\ 32dd 32ff#	.	.	.	.	.	.	.	.	.	.	.	.	.
32F#/	32f#\	.	.	.	.	.	.	.	.	.	.	.	.	.
32FF#/	32b\ 32dd 32ff#	.	.	.	.	.	.	.	.	.	.	.	.	.
32F#/	32f#\JJJ	.	.	.	.	.	.	.	.	.	.	.	.	.
32FF#/	32b\LLL 32dd 32gg	.	4E#X\	.	.	.	4B\ 4d	-go	-li-	.	.	.	.	.
32F#/	32e#X\	.	.	.	.	.	.	.	.	.	.	.	.	.
32FF#/	32b\ 32dd 32gg	.	.	.	.	.	.	.	.	.	.	.	.	.
32F#/	32e#\	.	.	.	.	.	.	.	.	.	.	.	.	.
32FF#/	32b\ 32dd 32gg	.	.	.	.	.	.	.	.	.	.	.	.	.
32F#/	32e#\	.	.	.	.	.	.	.	.	.	.	.	.	.
32FF#/	32b\ 32dd 32gg	.	.	.	.	.	.	.	.	.	.	.	.	.
32F#/JJJ	32e#\JJJ	.	.	.	.	.	.	.	.	.	.	.	.	.
=77	=77	=77	=77	=77	=77	=77	=77	=77	=77	=77	=77	=77	=77	=77
32FF#/LLL	8f#/L 8b 8dd 8ff#	.	2F#\	.	.	.	2B\ 2d	cień	-tar	.	1ryy	.	.	.
32F#/	.	.	.	.	.	.	.	.	.	.	.	.	.	.
32FF#/	.	.	.	.	.	.	.	.	.	.	.	.	.	.
32F#/	.	.	.	.	.	.	.	.	.	.	.	.	.	.
32FF#/	8B/	.	.	.	.	.	.	.	.	.	.	.	.	.
32F#/	.	.	.	.	.	.	.	.	.	.	.	.	.	.
32FF#/	.	.	.	.	.	.	.	.	.	.	.	.	.	.
32F#/	.	.	.	.	.	.	.	.	.	.	.	.	.	.
32FF#/	8d/	.	.	.	.	.	.	.	.	.	.	.	.	.
32F#/	.	.	.	.	.	.	.	.	.	.	.	.	.	.
32FF#/	.	.	.	.	.	.	.	.	.	.	.	.	.	.
32F#/	.	.	.	.	.	.	.	.	.	.	.	.	.	.
32FF#/	8f#/J	.	.	.	.	.	.	.	.	.	.	.	.	.
32F#/	.	.	.	.	.	.	.	.	.	.	.	.	.	.
32FF#/	.	.	.	.	.	.	.	.	.	.	.	.	.	.
32F#/JJJ	.	.	.	.	.	.	.	.	.	.	.	.	.	.
32FF#/LLL	16b/LL	.	4r	.	.	.	4r	.	.	.	.	.	.	.
32F#/	.	.	.	.	.	.	.	.	.	.	.	.	.	.
32FF#/	16f#/	.	.	.	.	.	.	.	.	.	.	.	.	.
32F#/	.	.	.	.	.	.	.	.	.	.	.	.	.	.
32FF#/	16d/	<	.	.	.	.	.	.	.	.	.	.	.	.
32F#/	.	.	.	.	.	.	.	.	.	.	.	.	.	.
32FF#/	16f#/JJ	.	.	.	.	.	.	.	.	.	.	.	.	.
32F#/	.	.	.	.	.	.	.	.	.	.	.	.	.	.
32FF#/	16b/LL	.	4D\	.	.	.	4d\	Nie	puo	.	.	.	.	.
32F#/	.	.	.	.	.	.	.	.	.	.	.	.	.	.
32FF#/	16f#/	.	.	.	.	.	.	.	.	.	.	.	.	.
32F#/	.	.	.	.	.	.	.	.	.	.	.	.	.	.
32FF#/	16b/	.	.	.	.	.	.	.	.	.	.	.	.	.
32F#/	.	.	.	.	.	.	.	.	.	.	.	.	.	.
32FF#/	16dd/JJ	[[	.	.	.	.	.	.	.	.	.	.	.	.
32F#/JJJ	.	.	.	.	.	.	.	.	.	.	.	.	.	.
=78	=78	=78	=78	=78	=78	=78	=78	=78	=78	=78	=78	=78	=78	=78
8.GG/L 8.G	4..d/ 4..b 4..dd	ff	4..B\	.	.	.	4..d\	wol-	l'ae-	.	1ryy	.	.	.
16GG/K 16G	.	.	.	.	.	.	.	.	.	.	.	.	.	.
8.GG/ 8.G	.	.	.	.	.	.	.	.	.	.	.	.	.	.
16GG/Jk 16G	16g/ 16b	.	16G\	.	.	.	16B\	-no	-re e i	.	.	.	.	.
8.GG/L 8.G	8.a\L 8.ccn	.	8.A\	.	.	.	8.cn\	mu	fior	.	.	.	.	.
16GG/K 16G	16b\K 16dd	.	16B\	.	.	.	16d\	ni	at-	.	.	.	.	.
8.GG/ 8.G	8.cc\ 8.ee	.	8.cn\	.	.	.	8.e\	w noc	-tos-	.	.	.	.	.
16GG/Jk 16G	16a\Jk 16cc 16ff#	.	16A\ 16c	.	.	.	16f#\	ni	-si	.	.	.	.	.
=79	=79	=79	=79	=79	=79	=79	=79	=79	=79	=79	=79	=79	=79	=79
8GG/ 8G	8g\L 8b 8gg	.	2G\ 2B	.	.	.	2d\ 2g	w dzień	car...	.	1ryy	.	.	.
16r	16r	.	.	.	.	.	.	.	.	.	.	.	.	.
16G\ 16B 16d	16g\Jk 16b 16gg	.	.	.	.	.	.	.	.	.	.	.	.	.
8G\L 8B 8d	8g\ 8b 8gg	.	.	.	.	.	.	.	.	.	.	.	.	.
16r	8r	.	.	.	.	.	.	.	.	.	.	.	.	.
16GG\Jk 16G	.	.	.	.	.	.	.	.	.	.	.	.	.	.
8EE\L 8E	8.r	.	2G\ 2B	.	.	.	2c#X\ 2e	Tam	s'ei	.	.	.	.	.
16r	.	.	.	.	.	.	.	.	.	.	.	.	.	.
16G\Jk 16B 16e	16g\ 16b 16cc# 16gg	.	.	.	.	.	.	.	.	.	.	.	.	.
8G\L 8B 8e	8g\ 8b 8cc# 8gg	.	.	.	.	.	.	.	.	.	.	.	.	.
16r	8r	.	.	.	.	.	.	.	.	.	.	.	.	.
16EE\Jk 16E	.	.	.	.	.	.	.	.	.	.	.	.	.	.
=80	=80	=80	=80	=80	=80	=80	=80	=80	=80	=80	=80	=80	=80	=80
*	*	*	*^	*	*	*	*^	*	*	*	*	*	*	*
8FF#\L 8F#	8.r	.	4F#\ 4B	4ryy	.	.	.	4f#/	4d\	gdzie	piu a	.	1ryy	.	.	.
16r	.	.	.	.	.	.	.	.	.	.	.	.	.	.	.	.
16F#\Jk 16B 16d	16f#\ 16b 16dd 16ff#	.	.	.	.	.	.	.	.	.	.	.	.	.	.	.
8F#\L 8B 8d	8f#\ 8b 8dd 8ff#	.	8.B/	8.B\	.	.	.	8.d/	8.d\	na-	lun-	.	.	.	.	.
16r	8r	.	.	.	.	.	.	.	.	.	.	.	.	.	.	.
16FF#\Jk 16F#	.	.	16B/	16B\	.	.	.	16B/	16B\	-szych	-go	.	.	.	.	.
8FF#\L 8F#	8.r	.	4.F#/	4.F#\	.	.	.	4.f#/	4.f#\	bo-	qui	.	.	.	.	.
16r	.	.	.	.	.	.	.	.	.	.	.	.	.	.	.	.
16F#\Jk 16B 16c#	16f#\ 16b 16cc# 16ff#	.	.	.	.	.	.	.	.	.	.	.	.	.	.	.
8F#\L 8A#X 8c#	8f#\ 8a#X 8cc# 8ff#	.	.	.	.	.	.	.	.	.	.	.	.	.	.	.
16r	8r	.	8F#/	8F#\	.	.	.	8f#/	8f#\	-gów	ri-	.	.	.	.	.
16FF#\Jk 16F#	.	.	.	.	.	.	.	.	.	.	.	.	.	.	.	.
*	*	*	*v	*v	*	*	*	*	*	*	*	*	*	*	*	*
*	*	*	*	*	*	*	*v	*v	*	*	*	*	*	*	*
=81	=81	=81	=81	=81	=81	=81	=81	=81	=81	=81	=81	=81	=81	=81
16BB^\LL 16D 16F# 16B	16dd\LL 16ff# 16ddd	.	[1B	.	.	.	[1f#	tron.	-sta	.	1ryy	.	.	.
16BB\ 16D 16F# 16B	16dd\ 16ff# 16ccc#	.	.	.	.	.	.	.	.	.	.	.	.	.
16BB\JJ 16D 16F# 16B	16dd\JJ 16ff# 16bb	.	.	.	.	.	.	.	.	.	.	.	.	.
16r	16r	.	.	.	.	.	.	.	.	.	.	.	.	.
16BB^\LL 16D 16F# 16B	16dd\LL 16ff# 16ddd	.	.	.	.	.	.	.	.	.	.	.	.	.
16BB\ 16D 16F# 16B	16dd\ 16ff# 16ccc#	.	.	.	.	.	.	.	.	.	.	.	.	.
16BB\JJ 16D 16F# 16B	16dd\JJ 16ff# 16bb	.	.	.	.	.	.	.	.	.	.	.	.	.
16r	16r	.	.	.	.	.	.	.	.	.	.	.	.	.
16BB^\LL 16D 16F# 16B	16dd\LL 16ff# 16ddd	.	.	.	.	.	.	.	.	.	.	.	.	.
16BB\ 16D 16F# 16B	16dd\ 16ff# 16ccc#	.	.	.	.	.	.	.	.	.	.	.	.	.
16BB\JJ 16D 16F# 16B	16dd\JJ 16ff# 16bb	.	.	.	.	.	.	.	.	.	.	.	.	.
16r	16r	.	.	.	.	.	.	.	.	.	.	.	.	.
16BB^\LL 16D 16F# 16B	16dd\LL 16ff# 16ddd	.	.	.	.	.	.	.	.	.	.	.	.	.
16BB\ 16D 16F# 16B	16dd\ 16ff# 16ccc#	.	.	.	.	.	.	.	.	.	.	.	.	.
16BB\JJ 16D 16F# 16B	16dd\JJ 16ff# 16bb	.	.	.	.	.	.	.	.	.	.	.	.	.
16r	16r	.	.	.	.	.	.	.	.	.	.	.	.	.
=82	=82	=82	=82	=82	=82	=82	=82	=82	=82	=82	=82	=82	=82	=82
16BB\LL	[4ff#\ [4bb [4ddd [4fff#	???	2B\]	.	.	.	2f#\]	.	.	.	1r	.	.	.
16D\	.	.	.	.	.	.	.	.	.	.	.	.	.	.
16F#\	.	.	.	.	.	.	.	.	.	.	.	.	.	.
16B\JJ	.	.	.	.	.	.	.	.	.	.	.	.	.	.
16BB\LL	16ff#\LL] 16bb] 16ddd] 16fff#]	.	.	.	.	.	.	.	.	.	.	.	.	.
16D\	16ddd\	.	.	.	.	.	.	.	.	.	.	.	.	.
16F#\	16bb\	.	.	.	.	.	.	.	.	.	.	.	.	.
16B\JJ	16ccc#\JJ	.	.	.	.	.	.	.	.	.	.	.	.	.
16BB\LL	16ddd\LL	.	2r	.	.	.	2r	.	.	.	.	.	.	.
16D\	16bb\	.	.	.	.	.	.	.	.	.	.	.	.	.
16F#\	16ff#\	.	.	.	.	.	.	.	.	.	.	.	.	.
16G\JJ	16gg\JJ	.	.	.	.	.	.	.	.	.	.	.	.	.
16F#\LL	16ff#\LL	.	.	.	.	.	.	.	.	.	.	.	.	.
16E\	16ee\	.	.	.	.	.	.	.	.	.	.	.	.	.
16D\	16dd\	.	.	.	.	.	.	.	.	.	.	.	.	.
16C#\JJ	16cc#\JJ	.	.	.	.	.	.	.	.	.	.	.	.	.
=83	=83	=83	=83	=83	=83	=83	=83	=83	=83	=83	=83	=83	=83	=83
4BB/	4b\	.	1r	.	.	.	1r	.	.	.	8r	.	.	.
!	!	!	!	!	!	!	!	!	!	!	!LO:TX:a:t=(gwałtownie)\n(con veemenza)	!	!	!
.	.	.	.	.	.	.	.	.	.	.	8dd\	Nę-	O	.
8r	8r	.	.	.	.	.	.	.	.	.	2ff#\	-dzni-	stol-	.
(32F#\LLL	(32f#/LLL	.	.	.	.	.	.	.	.	.	.	.	.	.
32E\	32e/	.	.	.	.	.	.	.	.	.	.	.	.	.
32D\	32d/	.	.	.	.	.	.	.	.	.	.	.	.	.
32C#\JJJ	32c#/JJJ	.	.	.	.	.	.	.	.	.	.	.	.	.
8D\)	8d/)	.	.	.	.	.	.	.	.	.	.	.	.	.
8r	8r	.	.	.	.	.	.	.	.	.	.	.	.	.
8AA\ 8A	8b\ 8dd 8ff#	sf	.	.	.	.	.	.	.	.	8b\	-ku	-to!	.
8r	8r	.	.	.	.	.	.	.	.	.	8r	.	.	.
=84	=84	=84	=84	=84	=84	=84	=84	=84	=84	=84	=84	=84	=84	=84
!	!	!	!	!	!	!	!	!	!	!	!LO:TX:a:t=(Parja ucieka)\n(il Paria fugge)	!	!	!
8GG#X/ 8G#X	8e/ 8b 8dd 8ee	sf	1r	.	.	.	1r	.	.	.	4r	.	.	.
8r	8r	.	.	.	.	.	.	.	.	.	.	.	.	.
4r	4r	.	.	.	.	.	.	.	.	.	8.dd\	u-	via	.
.	.	.	.	.	.	.	.	.	.	.	16b\	-chodź	di	.
2r	2r	.	.	.	.	.	.	.	.	.	4ee\	stąd.	qua.	.
.	.	.	.	.	.	.	.	.	.	.	4r	.	.	.
=85	=85	=85	=85	=85	=85	=85	=85	=85	=85	=85	=85	=85	=85	=85
!	!LO:TX:a:t=Allegro.	!	!	!	!	!	!	!	!	!	!LO:TX:a:t=Allegro.	!	!	!
8.r	8.r	.	1ryy	.	.	.	1ryy	.	.	.	1r	.	.	.
16A\KL	16a\KL 16cc# 16ee	f	.	.	.	.	.	.	.	.	.	.	.	.
8.G#X\	8.b\ 8.dd 8.ee	.	.	.	.	.	.	.	.	.	.	.	.	.
16A\Jk	16a\Jk 16cc# 16ee	.	.	.	.	.	.	.	.	.	.	.	.	.
8E\	8g#X\ 8b 8ee	.	.	.	.	.	.	.	.	.	.	.	.	.
16r	16r	.	.	.	.	.	.	.	.	.	.	.	.	.
16A\KL	16e/KL 16cc#	.	.	.	.	.	.	.	.	.	.	.	.	.
8.E\ 8.G#	8.d/ 8.b	.	.	.	.	.	.	.	.	.	.	.	.	.
16AA\Jk 16A	16c#/Jk 16a	.	.	.	.	.	.	.	.	.	.	.	.	.
=86	=86	=86	=86	=86	=86	=86	=86	=86	=86	=86	=86	=86	=86	=86
*	*	*	*	*	*	*	*	*	*	*	*^	*	*	*
!	!	!	!	!	!	!	!	!	!	!	!LO:TX:a:t=(powstrzymuje chór goniący za uwolnionym)\n(I guerrieri vorrebbero inseguirlo. Idamor li trattiene)	!	!	!	!
8E\ 8G#X	8B/ 8e	.	1ryy	.	.	.	1ryy	.	.	.	8r	8ryy	.	.	.
8r	8r	.	.	.	.	.	.	.	.	.	16g#X/	8ryy	A-	Non	.
.	.	.	.	.	.	.	.	.	.	.	16b/	.	-ni	un	.
4r	4r	.	.	.	.	.	.	.	.	.	8e/	8e\	krok!	pas-	.
.	.	.	.	.	.	.	.	.	.	.	8e\	8ryy	.	-so!	.
2r	2r	.	.	.	.	.	.	.	.	.	2r	2ryy	.	.	.
=87	=87	=87	=87	=87	=87	=87	=87	=87	=87	=87	=87	=87	=87	=87	=87
!	!	!	!	!	!	!	!	!	!	!	!LO:TX:a:t=(spokojnie)\n(tranquillamente)	!	!	!	!
!	!LO:TX:a:t=Piu lento.	!	!	!	!	!	!LO:TX:a:t=Piu lento.	!	!	!	!LO:TX:a:t=Piu lento.	!	!	!	!
1r	1r	.	1ryy	.	.	.	1ryy	.	.	.	2r	1r	.	.	.
!	!	!	!	!	!	!	!	!	!	!	!	!	!	!	!LO:DY:a
.	.	.	.	.	.	.	.	.	.	.	4g#X/	.	Trze-	Non	p
.	.	.	.	.	.	.	.	.	.	.	8g#/	.	-ba	ci	.
.	.	.	.	.	.	.	.	.	.	.	8g#/	.	mieć	scor-	.
*	*	*	*	*	*	*	*	*	*	*	*v	*v	*	*	*
=88	=88	=88	=88	=88	=88	=88	=88	=88	=88	=88	=88	=88	=88	=88
!	!LO:TX:b:t=Q.	!	!	!	!	!	!	!	!	!	!	!	!	!
1E	1c# 1g#X 1cc#	p	1ryy	.	.	.	1ryy	.	.	.	4.cc#\	wzgląd	-diam	.
.	.	.	.	.	.	.	.	.	.	.	8g#X/	by	che	.
.	.	.	.	.	.	.	.	.	.	.	8.g#/	świę-	que-	.
.	.	.	.	.	.	.	.	.	.	.	16g#/	-tej	-sto	.
.	.	.	.	.	.	.	.	.	.	.	8a/	zie-	sa-	.
.	.	.	.	.	.	.	.	.	.	.	8b/	-mi	-cro	.
=89	=89	=89	=89	=89	=89	=89	=89	=89	=89	=89	=89	=89	=89	=89
1F#	1c# 1f# 1a	.	1ryy	.	.	.	1ryy	.	.	.	4a/	tej	suol	.
.	.	.	.	.	.	.	.	.	.	.	4r	.	.	.
.	.	.	.	.	.	.	.	.	.	.	4cc#\	Jej	Di	.
.	.	.	.	.	.	.	.	.	.	.	8.b#X\	świę-	san-	.
.	.	.	.	.	.	.	.	.	.	.	16cc#\	-tych	-gue im	.
=90	=90	=90	=90	=90	=90	=90	=90	=90	=90	=90	=90	=90	=90	=90
1G#X	1c# 1e 1g#X	.	1ryy	.	.	.	1ryy	.	.	.	4.dd\	palm	pu-	.
.	.	.	.	.	.	.	.	.	.	.	8g#X/	i	-ro	.
.	.	.	.	.	.	.	.	.	.	.	8e/	świę-	mac-	.
.	.	.	.	.	.	.	.	.	.	.	8g#/	-tych	-chiar	.
.	.	.	.	.	.	.	.	.	.	.	8cc#\	kwia-	non	.
.	.	.	.	.	.	.	.	.	.	.	8ee\	-tów	si	.
=91	=91	=91	=91	=91	=91	=91	=91	=91	=91	=91	=91	=91	=91	=91
1A	1c# 1e 1f#	.	1r	.	.	.	1r	.	.	.	[2ee\	jej	de	.
.	.	.	.	.	.	.	.	.	.	.	8ee\]	.	.	.
.	.	.	.	.	.	.	.	.	.	.	8r	.	.	.
.	.	.	.	.	.	.	.	.	.	.	4cc#\	Nie	Del	.
=92	=92	=92	=92	=92	=92	=92	=92	=92	=92	=92	=92	=92	=92	=92
1A;	1c#; 1d#X 1f#	.	1r;	.	.	.	1r;	.	.	.	8.ff#;\	go-	ciel	.
.	.	.	.	.	.	.	.	.	.	.	16cc#\	-dna	e	.
.	.	.	.	.	.	.	.	.	.	.	8cc#\	nie	leg-	.
.	.	.	.	.	.	.	.	.	.	.	8cc#\	ska-	-ge	.
.	.	.	.	.	.	.	.	.	.	.	4b#X\	-la-	che	.
.	.	.	.	.	.	.	.	.	.	.	4cc#\	-ła	lo	.
=93	=93	=93	=93	=93	=93	=93	=93	=93	=93	=93	=93	=93	=93	=93
*	*^	*	*	*	*	*	*	*	*	*	*	*	*	*
!	!	!	!	!	!	!	!	!	!	!	!	!LO:TX:a:t=a tempo	!	!	!
!	!LO:TX:a:t=Lento.	!	!	!	!	!	!	!	!	!	!	!LO:TX:a:t=Lento.	!	!	!
(2G#X\	(2g#X/	1c# 1e	p	1r	.	.	.	2r	.	.	.	4g#X/	krew!	vuol.	.
.	.	.	.	.	.	.	.	.	.	.	.	4r	.	.	.
!	!	!	!	!	!	!	!	!	!	!	!	!LO:TX:a:t=(między sobą zdziwieni, z nieufnością)\n(con sorpresa e diffidenza)	!	!	!
2Gn\	2a/	.	.	.	.	.	.	8r	.	.	.	2r	.	.	.
!	!	!	!	!	!	!	!	!	!	!	!LO:DY:a	!	!	!	!
.	.	.	.	.	.	.	.	8A/	O-	Ei	p	.	.	.	.
.	.	.	.	.	.	.	.	8.A/	-ca-	lo	.	.	.	.	.
.	.	.	.	.	.	.	.	16A/	-la	sal-	.	.	.	.	.
=94	=94	=94	=94	=94	=94	=94	=94	=94	=94	=94	=94	=94	=94	=94	=94
2F#\	2a/	2d\	.	2r	.	.	.	4D/	go...	-vo...	.	1r	.	.	.
.	.	.	.	.	.	.	.	2r	.	.	.	.	.	.	.
2E\	2gn/ 2a#X	2c#\	.	8r	.	.	.	.	.	.	.	.	.	.	.
!	!	!	!	!	!	!	!LO:DY:a	!	!	!	!	!	!	!	!
.	.	.	.	8G\	to	Pie-	p	.	.	.	.	.	.	.	.
.	.	.	.	8.G\	dzi-	-to	.	4r	.	.	.	.	.	.	.
.	.	.	.	16G\	-wna	so	.	.	.	.	.	.	.	.	.
=95	=95	=95	=95	=95	=95	=95	=95	=95	=95	=95	=95	=95	=95	=95	=95
2D\	2B/ 2b	1f#	<	4BB/	rzecz...	cor,	.	2r	.	.	.	1ryy	.	.	.
.	.	.	.	4r	.	.	.	.	.	.	.	.	.	.	.
2Cn/)	2d/) 2a	.	.	8r	.	.	.	8r	.	.	.	.	.	.	.
!	!	!	!	!	!	!	!LO:DY:a	!	!	!	!LO:DY:a	!	!	!	!
.	.	.	.	8D\	.	.	mf	8d\	O-	Ei	mf	.	.	.	.
.	.	.	.	8D\	.	.	.	8d\	-ca-	lo	.	.	.	.	.
.	.	.	.	8D\	.	.	.	8d\	-la	sal-	.	.	.	.	.
*	*v	*v	*	*	*	*	*	*	*	*	*	*	*	*	*
=96	=96	=96	=96	=96	=96	=96	=96	=96	=96	=96	=96	=96	=96	=96
!	!	!	!	!	!	!LO:DY:a	!	!	!	!LO:DY:a	!	!	!	!
(4.BB^/	2d/ 2g	[	4.G\	.	.	>	4.G/	go...	-vo...	>	1ryy	.	.	.
8AA/	.	.	8A\	.	.	.	8A/	to	pie-	.	.	.	.	.
4GG/	[2B/ [2d 2b	.	4B\	.	.	.	4B\	dzi-	-to	.	.	.	.	.
8FF#/L	.	.	4B\	.	.	]	4B\	-wna	so	]	.	.	.	.
8EE#X/J	.	.	.	.	.	.	.	.	.	.	.	.	.	.
=97	=97	=97	=97	=97	=97	=97	=97	=97	=97	=97	=97	=97	=97	=97
!	!LO:TX:a:t=V-la e Cl.	!	!	!	!	!	!	!	!	!	!	!	!	!
[1FF#)	(16B^/LL] 16d] 16f#	.	4F#\	.	.	.	4F#/	rzecz	cor!	.	1ryy	.	.	.
.	16F#/	.	.	.	.	.	.	.	.	.	.	.	.	.
.	16B/	.	.	.	.	.	.	.	.	.	.	.	.	.
.	16c#/JJ	.	.	.	.	.	.	.	.	.	.	.	.	.
.	16d/LL	.	4r	.	.	.	4r	.	.	.	.	.	.	.
.	16B/	.	.	.	.	.	.	.	.	.	.	.	.	.
.	16d/	.	.	.	.	.	.	.	.	.	.	.	.	.
.	16e/JJ	.	.	.	.	.	.	.	.	.	.	.	.	.
.	8f#/)	.	8r	.	.	.	2r	.	.	.	.	.	.	.
!	!	!	!	!	!	!LO:DY:a	!	!	!	!	!	!	!	!
.	8r	.	8F#\	lecz	Del	p	.	.	.	.	.	.	.	.
.	4r	.	8B\	wo-	du-	.	.	.	.	.	.	.	.	.
.	.	.	8d\	-dza	-ce	.	.	.	.	.	.	.	.	.
=98	=98	=98	=98	=98	=98	=98	=98	=98	=98	=98	=98	=98	=98	=98
1EE 1FF#]	16r	.	[2c#\	trze-	stra-	.	1r	.	.	.	1ryy	.	.	.
.	(16F#/LL	.	.	.	.	.	.	.	.	.	.	.	.	.
.	16A#X/	.	.	.	.	.	.	.	.	.	.	.	.	.
.	16B/JJ	.	.	.	.	.	.	.	.	.	.	.	.	.
.	16c#/LL	.	.	.	.	.	.	.	.	.	.	.	.	.
.	16F#/	.	.	.	.	.	.	.	.	.	.	.	.	.
.	16A#/	.	.	.	.	.	.	.	.	.	.	.	.	.
.	16c#/JJ	.	.	.	.	.	.	.	.	.	.	.	.	.
.	8f#/)	.	8c#\]	.	.	.	.	.	.	.	.	.	.	.
.	8r	.	8B\	-ba	-no	.	.	.	.	.	.	.	.	.
.	4r	.	8A#X\	słu-	fu il	.	.	.	.	.	.	.	.	.
.	.	.	8c#\	-chać	vo-	.	.	.	.	.	.	.	.	.
=99	=99	=99	=99	=99	=99	=99	=99	=99	=99	=99	=99	=99	=99	=99
1DD 1FF#	16r	.	2F#\	nam.	-ler.	.	2r	.	.	.	1ryy	.	.	.
.	(16F#/LL	.	.	.	.	.	.	.	.	.	.	.	.	.
.	16B/	.	.	.	.	.	.	.	.	.	.	.	.	.
.	16c#/JJ	.	.	.	.	.	.	.	.	.	.	.	.	.
.	16d/LL	.	.	.	.	.	.	.	.	.	.	.	.	.
.	16c#/	.	.	.	.	.	.	.	.	.	.	.	.	.
.	16B/	.	.	.	.	.	.	.	.	.	.	.	.	.
.	16d/JJ	.	.	.	.	.	.	.	.	.	.	.	.	.
.	8f#/)	.	2r	.	.	.	8r	.	.	.	.	.	.	.
!	!	!	!	!	!	!	!	!	!	!LO:DY:a	!	!	!	!
.	8r	.	.	.	.	.	8B\	Tak!	Del	p	.	.	.	.
.	4r	.	.	.	.	.	8d\	Wo-	du-	.	.	.	.	.
.	.	.	.	.	.	.	8f#\	-dza	-ce	.	.	.	.	.
=100	=100	=100	=100	=100	=100	=100	=100	=100	=100	=100	=100	=100	=100	=100
1GG 1BB	16r	.	1r	.	.	.	[2e^\	trze-	stra-	.	1ryy	.	.	.
.	(16B/LL	.	.	.	.	.	.	.	.	.	.	.	.	.
.	16e/	.	.	.	.	.	.	.	.	.	.	.	.	.
.	16f#/JJ	.	.	.	.	.	.	.	.	.	.	.	.	.
.	16g/LL	.	.	.	.	.	.	.	.	.	.	.	.	.
.	16e/	.	.	.	.	.	.	.	.	.	.	.	.	.
.	16g/	.	.	.	.	.	.	.	.	.	.	.	.	.
.	16a/JJ	.	.	.	.	.	.	.	.	.	.	.	.	.
.	8b/)	.	.	.	.	.	8e\]	.	.	.	.	.	.	.
.	4r	.	.	.	.	.	8d\	-ba	-no	.	.	.	.	.
.	.	.	.	.	.	.	8c#\	słu-	fu il	.	.	.	.	.
.	8r	.	.	.	.	.	8B\	-chać	vo-	.	.	.	.	.
=101	=101	=101	=101	=101	=101	=101	=101	=101	=101	=101	=101	=101	=101	=101
8.r	8.r	.	4r	.	.	.	4d\	nam	-ler	.	1r	.	.	.
!	!LO:TX:b:t=Tutti	!	!	!	!	!	!	!	!	!	!	!	!	!
16cn\KL	16f#/KL 16a 16dd	f	.	.	.	.	.	.	.	.	.	.	.	.
!	!LO:TX:b:t=accelerando	!	!	!	!	!	!	!	!	!	!	!	!	!
8.B\	8.g/ 8.dd	.	8r	.	.	.	8r	.	.	.	.	.	.	.
.	.	.	16r	.	.	.	16r	.	.	.	.	.	.	.
!	!	!	!	!	!	!LO:DY:a	!LO:TX:a:t=(porywając się)\n(scuotendosi)	!	!	!LO:DY:a	!	!	!	!
16A\Jk	16f#/Jk 16ccn 16dd	.	16d\	.	.	f	16d\	Nie!	No!	f	.	.	.	.
8G\	8g/ 8b 8dd	.	8d\	.	.	.	8d\	nie!	no!	.	.	.	.	.
16r	16r	.	4r	.	.	.	4r	.	.	.	.	.	.	.
16FFn/KL 16Fn	16g\KL 16b 16dd	.	.	.	.	.	.	.	.	.	.	.	.	.
8.EE/ 8.E	8.g\ 8.cc	.	.	.	.	.	.	.	.	.	.	.	.	.
.	.	.	16r	.	.	.	16r	.	.	.	.	.	.	.
16DD/Jk 16D	16g\Jk 16b 16ffn 16gg	.	16d\	.	.	.	16d\	On	E un	.	.	.	.	.
=102	=102	=102	=102	=102	=102	=102	=102	=102	=102	=102	=102	=102	=102	=102
!	!	!	!	!	!	!LO:DY:a	!	!	!	!LO:DY:a	!	!	!	!
4..CCn/ 4..Cn	4..g;\ 4..cc# 4..ee 4..gg	??? >	4..G;\ 4..cn	.	.	>	4..e;\ 4..g	Pa-	Pa-	>	2r;	.	.	.
16EE#X/	16B/ 16d 16g	p	16GG/ 16G	.	.	.	16G/	-rj-	-ri-	.	.	.	.	.
2EE#/	2B/ 2d 2g	]	4GG/ 4G	.	.	]	4G/	-a!	-a!	]	4r	.	.	.
.	.	.	4r	.	.	.	4r	.	.	.	4dd^\	Precz!	Via!	.
=103	=103	=103	=103	=103	=103	=103	=103	=103	=103	=103	=103	=103	=103	=103
1FF#	8r	p	1r	.	.	.	4r	.	.	.	1r	.	.	.
!	!LO:TX:a:t=Cl.	!	!	!	!	!	!	!	!	!	!	!	!	!
.	(8F#/L	.	.	.	.	.	.	.	.	.	.	.	.	.
.	8B/	.	.	.	.	.	8r	.	.	.	.	.	.	.
!	!	!	!	!	!	!	!	!	!	!LO:DY:a	!	!	!	!
.	8c#/J	.	.	.	.	.	8F#/	O-	Ei	pp	.	.	.	.
.	8d/L	.	.	.	.	.	4.B\	-ca-	lo	.	.	.	.	.
.	8f#/	.	.	.	.	.	.	.	.	.	.	.	.	.
.	8a/	.	.	.	.	.	.	.	.	.	.	.	.	.
.	8g/J)	.	.	.	.	.	8B\	-la	sal-	.	.	.	.	.
=104	=104	=104	=104	=104	=104	=104	=104	=104	=104	=104	=104	=104	=104	=104
*^	*	*	*	*	*	*	*	*	*	*	*	*	*	*
8r	2FF#\	2G/ 2e	.	4r	.	.	.	4G/	go	-vo,	.	1r	.	.	.
!LO:TX:a:t=V-IIi	!	!	!	!	!	!	!	!	!	!	!	!	!	!	!
!LO:TX:b:t=m.s.	!	!	!	!	!	!	!	!	!	!	!	!	!	!	!
8E/L	.	.	.	.	.	.	.	.	.	.	.	.	.	.	.
!	!	!	!	!	!	!	!LO:DY:a	!	!	!	!	!	!	!	!
8.c#/	.	.	.	4C#/	to	Pie-	pp	2r	.	.	.	.	.	.	.
16B/Jk	.	.	.	.	.	.	.	.	.	.	.	.	.	.	.
2ryy	2A#X/	(4G/ 4e	.	4G\	dzi-	-to-	.	.	.	.	.	.	.	.	.
.	.	8F#/L 8d	.	4F#\	-wna	-so	.	4r	.	.	.	.	.	.	.
.	.	8E/J 8c#	.	.	.	.	.	.	.	.	.	.	.	.	.
*v	*v	*	*	*	*	*	*	*	*	*	*	*	*	*	*
=105	=105	=105	=105	=105	=105	=105	=105	=105	=105	=105	=105	=105	=105	=105
16BBB'/LL 16BB	8D/) 8B	.	4.BB/	rzecz.	cor!	.	1r	.	.	.	1ryy	.	.	.
16BBB'/J 16BB	.	.	.	.	.	.	.	.	.	.	.	.	.	.
8BBB'/J 8BB	8r	.	.	.	.	.	.	.	.	.	.	.	.	.
16F#'\LL 16B	16d'/LL 16f# 16dd	.	.	.	.	.	.	.	.	.	.	.	.	.
16F#'\J 16B	16d'/J 16f# 16cc#	.	.	.	.	.	.	.	.	.	.	.	.	.
!	!	!	!LO:TX:a:t=(odchodzą niechętni)\n(si allontanano di malavoglia.)	!	!	!	!	!	!	!	!	!	!	!
8F#'\J 8B	8d'/J 8f# 8b	.	8r	.	.	.	.	.	.	.	.	.	.	.
16BBB'/LL 16BB	4r	.	2r	.	.	.	.	.	.	.	.	.	.	.
16BBB'/J 16BB	.	.	.	.	.	.	.	.	.	.	.	.	.	.
8BBB'/J 8BB	.	.	.	.	.	.	.	.	.	.	.	.	.	.
16E'\LL	16B'/LL 16g 16b	.	.	.	.	.	.	.	.	.	.	.	.	.
16F#'\J	16B'/J 16f# 16a	.	.	.	.	.	.	.	.	.	.	.	.	.
!	!	!LO:DY:a	!	!	!	!	!	!	!	!	!	!	!	!
8G'\J	8B'/J 8e 8g	>	.	.	.	.	.	.	.	.	.	.	.	.
=106	=106	=106	=106	=106	=106	=106	=106	=106	=106	=106	=106	=106	=106	=106
16BBB'/LL 16BB	4r	.	1r	.	.	.	1r	.	.	.	1ryy	.	.	.
16BBB'/J 16BB	.	.	.	.	.	.	.	.	.	.	.	.	.	.
8BBB'/J 8BB	.	.	.	.	.	.	.	.	.	.	.	.	.	.
16F#'\LL	16d'/LL 16f#	.	.	.	.	.	.	.	.	.	.	.	.	.
16F#'\J	16c#'/J 16e	.	.	.	.	.	.	.	.	.	.	.	.	.
8F#'\J	8B'/J 8d	.	.	.	.	.	.	.	.	.	.	.	.	.
16BBB'/LL 16BB	4r	.	.	.	.	.	.	.	.	.	.	.	.	.
16BBB'/J 16BB	.	.	.	.	.	.	.	.	.	.	.	.	.	.
8BBB'/J 8BB	.	.	.	.	.	.	.	.	.	.	.	.	.	.
16F#'\LL	16c#'/LL 16e	.	.	.	.	.	.	.	.	.	.	.	.	.
16F#'\J	16B'/J 16d	.	.	.	.	.	.	.	.	.	.	.	.	.
8F#'\J	8A#X'/J 8c#	.	.	.	.	.	.	.	.	.	.	.	.	.
=107	=107	=107	=107	=107	=107	=107	=107	=107	=107	=107	=107	=107	=107	=107
16BBB'/LL 16BB	4r	.	1ryy	.	.	.	1ryy	.	.	.	1ryy	.	.	.
16BBB'/J 16BB	.	.	.	.	.	.	.	.	.	.	.	.	.	.
8BBB'/J 8BB	.	.	.	.	.	.	.	.	.	.	.	.	.	.
16F#'\LL	16B'/LL 16d	.	.	.	.	.	.	.	.	.	.	.	.	.
16F#'\J	16A#X'/J 16c#	.	.	.	.	.	.	.	.	.	.	.	.	.
8D'\J 8F#	8B'/J	.	.	.	.	.	.	.	.	.	.	.	.	.
16GGG'/LL 16GG	4r	]	.	.	.	.	.	.	.	.	.	.	.	.
16GGG'/J 16GG	.	.	.	.	.	.	.	.	.	.	.	.	.	.
8GGG'/J 8GG	.	.	.	.	.	.	.	.	.	.	.	.	.	.
*	*clefF4	*	*	*	*	*	*	*	*	*	*	*	*	*
16G'\LL	16B'\LL	.	.	.	.	.	.	.	.	.	.	.	.	.
16D'\J	16A#'\J	.	.	.	.	.	.	.	.	.	.	.	.	.
8BB'\J	8G'\J	.	.	.	.	.	.	.	.	.	.	.	.	.
=108	=108	=108	=108	=108	=108	=108	=108	=108	=108	=108	=108	=108	=108	=108
16DD'/LL 16D	4r	.	1ryy	.	.	.	1ryy	.	.	.	1ryy	.	.	.
16DD'/J 16D	.	.	.	.	.	.	.	.	.	.	.	.	.	.
8DD'/J 8D	.	.	.	.	.	.	.	.	.	.	.	.	.	.
16D'/LL	16F#'\LL	.	.	.	.	.	.	.	.	.	.	.	.	.
16AA'/J	16E'\J	.	.	.	.	.	.	.	.	.	.	.	.	.
8FF#'/J	8D'\J	.	.	.	.	.	.	.	.	.	.	.	.	.
16FFF#'/LL 16FF#	4r	.	.	.	.	.	.	.	.	.	.	.	.	.
16FFF#'/J 16FF#	.	.	.	.	.	.	.	.	.	.	.	.	.	.
8FFF#'/J 8FF#	.	.	.	.	.	.	.	.	.	.	.	.	.	.
16C#'/LL	16E'\LL	.	.	.	.	.	.	.	.	.	.	.	.	.
16BB'/J	16D'\J	.	.	.	.	.	.	.	.	.	.	.	.	.
8AA#X'/J	8C#'\J	.	.	.	.	.	.	.	.	.	.	.	.	.
=109	=109	=109	=109	=109	=109	=109	=109	=109	=109	=109	=109	=109	=109	=109
*^	*	*	*	*	*	*	*	*	*	*	*	*	*	*
8.r	1BBB	(8.BB/L 8.D	pp	1ryy	.	.	.	1ryy	.	.	.	1ryy	.	.	.
16GG/KL	.	16AA#X/K 16C#	.	.	.	.	.	.	.	.	.	.	.	.	.
8.FF#/	.	8.BB/ 8.D	.	.	.	.	.	.	.	.	.	.	.	.	.
16GG/Jk	.	16AA#/Jk 16C#	.	.	.	.	.	.	.	.	.	.	.	.	.
8.FF#/L	.	8.BB/L 8.D	.	.	.	.	.	.	.	.	.	.	.	.	.
16GG/K	.	16AA#/K 16C#	.	.	.	.	.	.	.	.	.	.	.	.	.
8.FF#/	.	8.BB/ 8.D	.	.	.	.	.	.	.	.	.	.	.	.	.
16GG/Jk	.	16AA#/Jk) 16C#	.	.	.	.	.	.	.	.	.	.	.	.	.
*v	*v	*	*	*	*	*	*	*	*	*	*	*	*	*	*
=110	=110	=110	=110	=110	=110	=110	=110	=110	=110	=110	=110	=110	=110	=110
2FFF#/ 2FFn	8.BB/L 8.D	.	1ryy	.	.	.	1ryy	.	.	.	1ryy	.	.	.
.	16AA#X'/K 16C#	.	.	.	.	.	.	.	.	.	.	.	.	.
.	8.BB'/ 8.D	.	.	.	.	.	.	.	.	.	.	.	.	.
.	16Cn'/Jk 16E	.	.	.	.	.	.	.	.	.	.	.	.	.
*^	*	*	*	*	*	*	*	*	*	*	*	*	*	*
4.DD/	2GGG\	8D\L 8Fn	.	.	.	.	.	.	.	.	.	.	.	.	.
.	.	8E\ 8G	.	.	.	.	.	.	.	.	.	.	.	.	.
.	.	8F\ 8A	.	.	.	.	.	.	.	.	.	.	.	.	.
8GG/	.	8F\J 8B	.	.	.	.	.	.	.	.	.	.	.	.	.
*v	*v	*	*	*	*	*	*	*	*	*	*	*	*	*	*
=111	=111	=111	=111	=111	=111	=111	=111	=111	=111	=111	=111	=111	=111	=111
8.AAA-X/L 8.AA-X	4..E\ 4..cn	ppp	1ryy	.	.	.	1ryy	.	.	.	1ryy	.	.	.
16GGG/K 16GG	.	.	.	.	.	.	.	.	.	.	.	.	.	.
8.AAA-/ 8.AA-	.	.	.	.	.	.	.	.	.	.	.	.	.	.
16GGG/Jk 16GG	16c\	.	.	.	.	.	.	.	.	.	.	.	.	.
*	*clefG2	*	*	*	*	*	*	*	*	*	*	*	*	*
8.AAA-/L 8.AA-	8.c/L 8.fn	.	.	.	.	.	.	.	.	.	.	.	.	.
16GGG/K 16GG	16c/Jk 16e	.	.	.	.	.	.	.	.	.	.	.	.	.
8.AAA-/ 8.AA-	8.c/L 8.f 8.ccn	.	.	.	.	.	.	.	.	.	.	.	.	.
16GGG#X/Jk 16GG#X	16c/Jk 16e 16cc	.	.	.	.	.	.	.	.	.	.	.	.	.
=112	=112	=112	=112	=112	=112	=112	=112	=112	=112	=112	=112	=112	=112	=112
*	*^	*	*	*	*	*	*	*	*	*	*	*	*	*
*	*	*^	*	*	*	*	*	*	*	*	*	*	*	*	*
2AAAn/ 2AAn	2cn/ 2fn 2ccn	2ryy	2ryy	.	1ryy	.	.	.	1ryy	.	.	.	1ryy	.	.	.
2DD\	4a/	2Fn/	4.c\	.	.	.	.	.	.	.	.	.	.	.	.	.
.	8f/L	.	.	.	.	.	.	.	.	.	.	.	.	.	.	.
.	8c/J	.	8A\	.	.	.	.	.	.	.	.	.	.	.	.	.
*	*	*v	*v	*	*	*	*	*	*	*	*	*	*	*	*	*
=113	=113	=113	=113	=113	=113	=113	=113	=113	=113	=113	=113	=113	=113	=113	=113
[2GG\	((2cn/ 2e	(2.G\	.	1ryy	.	.	.	1ryy	.	.	.	1ryy	.	.	.
2GGG\ 2GG]	2B/)) 2d	.	.	.	.	.	.	.	.	.	.	.	.	.	.
.	.	4Fn\)	.	.	.	.	.	.	.	.	.	.	.	.	.
*	*v	*v	*	*	*	*	*	*	*	*	*	*	*	*	*
=||	=||	=||	=||	=||	=||	=||	=||	=||	=||	=||	=||	=||	=||	=||
*-	*-	*-	*-	*-	*-	*-	*-	*-	*-	*-	*-	*-	*-	*-
!!!system-decoration: s1[(s2,s3)][(s4,s5)]
!!!ENC: Berenika Jozajtis
!!!END: 2022-08-26
!!!YEC: Copyright 2022 Narodowy Instytut Fryderyka Chopina (https://polishscores.org)
!!!YEM: License CC-BY-4.0 (https://creativecommons.org/licenses/by/4.0)
